; *** File generated by KrabzCAM Mon Nov 04 2024 17:39:37 GMT+0100 (heure normale d’Europe centrale) ***

G21
G90
G17
G40


; BEGIN TOOLPATH 'pocket'
;   Files: support.svg
;   Operation: 
;    name  =  Pocket
;    type  =  POCKET
;    toolDiameter  =  3.175
;    targetDepth  =  4
;    safetyHeight  =  2
;    stepDown  =  1
;    feedRate  =  600
;    plungeRate  =  100
;    spindleSpeed  =  10000
;    stepOver  =  40
;    roughingClearance  =  -0.5
;    direction  =  Counterclockwise
;    pattern  =  Nested
;    lineAngle  =  0
;    lineDirection  =  ZIGZAG
;    layerDirection  =  Outward
;    depthFirst  =  false
;    attack  =  Ramp
M3 S10000
G0 Z2
G0 X84.08763749 Y44.49979476
G0 Z0
G1 X84.00485822 Y44.08362467 Z-0.04252547 F600
G1 X83.76911825 Y43.73081222 Z-0.08505094 F600
G1 X83.41630711 Y43.4950703 Z-0.12757641 F600
G1 X83.00013748 Y43.41228871 Z-0.17010188 F600
G1 X80.08734658 Y43.41228874 Z-0.46202058 F600
G1 X80.08734922 Y43.03332671 Z-0.5 F600
G1 X80.08734658 Y43.41228874 Z-0.53797942 F600
G1 X83.00013748 Y43.41228871 Z-0.82989812 F600
G1 X83.41630711 Y43.4950703 Z-0.87242359 F600
G1 X83.76911825 Y43.73081222 Z-0.91494906 F600
G1 X84.00485822 Y44.08362467 Z-0.95747453 F600
G1 X84.08763749 Y44.49979476 Z-1 F600
G2 I-1.0875 J-0.00000605 X83.00013748 Y43.41228871 F600
G1 X80.08734658 Y43.41228874 F600
G1 X80.08735929 Y41.58753047 F600
G1 X85.9123974 Y41.58752091 F600
G1 X85.91237114 Y48.9127124 F600
G1 X84.08761295 Y48.91270058 F600
G1 X84.08763749 Y44.49979476 F600
G1 X84.00485822 Y44.08362467 Z-1.04252547 F600
G1 X83.76911825 Y43.73081222 Z-1.08505094 F600
G1 X83.41630711 Y43.4950703 Z-1.12757641 F600
G1 X83.00013748 Y43.41228871 Z-1.17010188 F600
G1 X80.08734658 Y43.41228874 Z-1.46202058 F600
G1 X80.08734922 Y43.03332671 Z-1.5 F600
G1 X80.08734658 Y43.41228874 Z-1.53797942 F600
G1 X83.00013748 Y43.41228871 Z-1.82989812 F600
G1 X83.41630711 Y43.4950703 Z-1.87242359 F600
G1 X83.76911825 Y43.73081222 Z-1.91494906 F600
G1 X84.00485822 Y44.08362467 Z-1.95747453 F600
G1 X84.08763749 Y44.49979476 Z-2 F600
G2 I-1.0875 J-0.00000605 X83.00013748 Y43.41228871 F600
G1 X80.08734658 Y43.41228874 F600
G1 X80.08735929 Y41.58753047 F600
G1 X85.9123974 Y41.58752091 F600
G1 X85.91237114 Y48.9127124 F600
G1 X84.08761295 Y48.91270058 F600
G1 X84.08763749 Y44.49979476 F600
G1 X84.00485822 Y44.08362467 Z-2.04252547 F600
G1 X83.76911825 Y43.73081222 Z-2.08505094 F600
G1 X83.41630711 Y43.4950703 Z-2.12757641 F600
G1 X83.00013748 Y43.41228871 Z-2.17010188 F600
G1 X80.08734658 Y43.41228874 Z-2.46202058 F600
G1 X80.08734922 Y43.03332671 Z-2.5 F600
G1 X80.08734658 Y43.41228874 Z-2.53797942 F600
G1 X83.00013748 Y43.41228871 Z-2.82989812 F600
G1 X83.41630711 Y43.4950703 Z-2.87242359 F600
G1 X83.76911825 Y43.73081222 Z-2.91494906 F600
G1 X84.00485822 Y44.08362467 Z-2.95747453 F600
G1 X84.08763749 Y44.49979476 Z-3 F600
G2 I-1.0875 J-0.00000605 X83.00013748 Y43.41228871 F600
G1 X80.08734658 Y43.41228874 F600
G1 X80.08735929 Y41.58753047 F600
G1 X85.9123974 Y41.58752091 F600
G1 X85.91237114 Y48.9127124 F600
G1 X84.08761295 Y48.91270058 F600
G1 X84.08763749 Y44.49979476 F600
G1 X84.00485822 Y44.08362467 Z-3.04252547 F600
G1 X83.76911825 Y43.73081222 Z-3.08505094 F600
G1 X83.41630711 Y43.4950703 Z-3.12757641 F600
G1 X83.00013748 Y43.41228871 Z-3.17010188 F600
G1 X80.08734658 Y43.41228874 Z-3.46202058 F600
G1 X80.08734922 Y43.03332671 Z-3.5 F600
G1 X80.08734658 Y43.41228874 Z-3.53797942 F600
G1 X83.00013748 Y43.41228871 Z-3.82989812 F600
G1 X83.41630711 Y43.4950703 Z-3.87242359 F600
G1 X83.76911825 Y43.73081222 Z-3.91494906 F600
G1 X84.00485822 Y44.08362467 Z-3.95747453 F600
G1 X84.08763749 Y44.49979476 Z-4 F600
G2 I-1.0875 J-0.00000605 X83.00013748 Y43.41228871 F600
G1 X80.08734658 Y43.41228874 F600
G1 X80.08735929 Y41.58753047 F600
G1 X85.9123974 Y41.58752091 F600
G1 X85.91237114 Y48.9127124 F600
G1 X84.08761295 Y48.91270058 F600
G1 X84.08763749 Y44.49979476 F600
G0 Z2

; BEGIN TOOLPATH 'pocket'
;   Files: support.svg
;   Operation: 
;    name  =  Pocket
;    type  =  POCKET
;    toolDiameter  =  3.175
;    targetDepth  =  12
;    safetyHeight  =  2
;    stepDown  =  1
;    feedRate  =  600
;    plungeRate  =  100
;    spindleSpeed  =  10000
;    stepOver  =  40
;    roughingClearance  =  0
;    direction  =  Counterclockwise
;    pattern  =  Nested
;    lineAngle  =  0
;    lineDirection  =  ZIGZAG
;    layerDirection  =  Outward
;    depthFirst  =  false
;    attack  =  Ramp
G0 X65.61252293 Y30.21254441
G0 Z0
G1 X60.61252293 Y30.2125429 Z-0.5 F600
G1 X65.61252293 Y30.21254441 Z-1 F600
G1 X29.18754062 Y30.21253343 F600
G1 X29.18754054 Y29.78754368 F600
G1 X65.61252256 Y29.78754732 F600
G1 X65.61252293 Y30.21254441 F600
G1 X65.61252255 Y31.48254441 F600
G1 X27.91754086 Y31.48253305 F600
G1 X27.9175403 Y28.51754355 F600
G1 X66.88252145 Y28.51754745 F600
G1 X66.88252405 Y31.48254479 F600
G1 X65.61252255 Y31.48254441 F600
G1 X65.61252217 Y32.75254441 F600
G1 X26.6475411 Y32.75253266 F600
G1 X26.64754006 Y27.24754343 F600
G1 X68.15252033 Y27.24754758 F600
G1 X68.15252517 Y32.75254517 F600
G1 X65.61252217 Y32.75254441 F600
G1 X65.61252179 Y34.02254441 F600
G1 X25.37754134 Y34.02253228 F600
G1 X25.37753983 Y25.9775433 F600
G1 X69.42251921 Y25.9775477 F600
G1 X69.42252628 Y34.02254556 F600
G1 X65.61252179 Y34.02254441 F600
G1 X65.6125214 Y35.29254441 F600
G1 X24.10754157 Y35.2925319 F600
G1 X24.10753959 Y24.70754317 F600
G1 X70.6925181 Y24.70754783 F600
G1 X70.6925274 Y35.29254594 F600
G1 X65.6125214 Y35.29254441 F600
G1 X65.61252102 Y36.56254441 F600
G1 X22.83754181 Y36.56253152 F600
G1 X22.83753935 Y23.43754304 F600
G1 X71.96251698 Y23.43754796 F600
G1 X71.96252852 Y36.56254632 F600
G1 X65.61252102 Y36.56254441 F600
G1 X65.61252064 Y37.83254441 F600
G1 X21.56754205 Y37.83253113 F600
G1 X21.56753911 Y22.16754292 F600
G1 X73.23251586 Y22.16754809 F600
G1 X73.23252963 Y37.8325467 F600
G1 X65.61252064 Y37.83254441 F600
G1 X65.61252026 Y39.10254441 F600
G1 X20.29754229 Y39.10253075 F600
G1 X20.29753887 Y20.89754279 F600
G1 X74.50251475 Y20.89754821 F600
G1 X74.50253075 Y39.10254709 F600
G1 X65.61252026 Y39.10254441 F600
G1 X65.61251987 Y40.37254441 F600
G1 X19.02754253 Y40.37253037 F600
G1 X19.02753864 Y19.62754266 F600
G1 X75.77251363 Y19.62754834 F600
G1 X75.77253186 Y40.37254747 F600
G1 X65.61251987 Y40.37254441 F600
G1 X65.61251949 Y41.64254441 F600
G1 X17.75754276 Y41.64252998 F600
G1 X17.7575384 Y18.35754254 F600
G1 X77.04251252 Y18.35754847 F600
G1 X77.04253298 Y41.64254785 F600
G1 X65.61251949 Y41.64254441 F600
G1 X65.61251911 Y42.91254441 F600
G1 X16.487543 Y42.9125296 F600
G1 X16.48753816 Y17.08754241 F600
G1 X78.3125114 Y17.08754859 F600
G1 X78.3125341 Y42.91254823 F600
G1 X65.61251911 Y42.91254441 F600
G0 Z2
G0 X65.61252293 Y30.21254441
G0 Z-1
G1 X60.61252293 Y30.2125429 Z-1.5 F600
G1 X65.61252293 Y30.21254441 Z-2 F600
G1 X29.18754062 Y30.21253343 F600
G1 X29.18754054 Y29.78754368 F600
G1 X65.61252256 Y29.78754732 F600
G1 X65.61252293 Y30.21254441 F600
G1 X65.61252255 Y31.48254441 F600
G1 X27.91754086 Y31.48253305 F600
G1 X27.9175403 Y28.51754355 F600
G1 X66.88252145 Y28.51754745 F600
G1 X66.88252405 Y31.48254479 F600
G1 X65.61252255 Y31.48254441 F600
G1 X65.61252217 Y32.75254441 F600
G1 X26.6475411 Y32.75253266 F600
G1 X26.64754006 Y27.24754343 F600
G1 X68.15252033 Y27.24754758 F600
G1 X68.15252517 Y32.75254517 F600
G1 X65.61252217 Y32.75254441 F600
G1 X65.61252179 Y34.02254441 F600
G1 X25.37754134 Y34.02253228 F600
G1 X25.37753983 Y25.9775433 F600
G1 X69.42251921 Y25.9775477 F600
G1 X69.42252628 Y34.02254556 F600
G1 X65.61252179 Y34.02254441 F600
G1 X65.6125214 Y35.29254441 F600
G1 X24.10754157 Y35.2925319 F600
G1 X24.10753959 Y24.70754317 F600
G1 X70.6925181 Y24.70754783 F600
G1 X70.6925274 Y35.29254594 F600
G1 X65.6125214 Y35.29254441 F600
G1 X65.61252102 Y36.56254441 F600
G1 X22.83754181 Y36.56253152 F600
G1 X22.83753935 Y23.43754304 F600
G1 X71.96251698 Y23.43754796 F600
G1 X71.96252852 Y36.56254632 F600
G1 X65.61252102 Y36.56254441 F600
G1 X65.61252064 Y37.83254441 F600
G1 X21.56754205 Y37.83253113 F600
G1 X21.56753911 Y22.16754292 F600
G1 X73.23251586 Y22.16754809 F600
G1 X73.23252963 Y37.8325467 F600
G1 X65.61252064 Y37.83254441 F600
G1 X65.61252026 Y39.10254441 F600
G1 X20.29754229 Y39.10253075 F600
G1 X20.29753887 Y20.89754279 F600
G1 X74.50251475 Y20.89754821 F600
G1 X74.50253075 Y39.10254709 F600
G1 X65.61252026 Y39.10254441 F600
G1 X65.61251987 Y40.37254441 F600
G1 X19.02754253 Y40.37253037 F600
G1 X19.02753864 Y19.62754266 F600
G1 X75.77251363 Y19.62754834 F600
G1 X75.77253186 Y40.37254747 F600
G1 X65.61251987 Y40.37254441 F600
G1 X65.61251949 Y41.64254441 F600
G1 X17.75754276 Y41.64252998 F600
G1 X17.7575384 Y18.35754254 F600
G1 X77.04251252 Y18.35754847 F600
G1 X77.04253298 Y41.64254785 F600
G1 X65.61251949 Y41.64254441 F600
G1 X65.61251911 Y42.91254441 F600
G1 X16.487543 Y42.9125296 F600
G1 X16.48753816 Y17.08754241 F600
G1 X78.3125114 Y17.08754859 F600
G1 X78.3125341 Y42.91254823 F600
G1 X65.61251911 Y42.91254441 F600
G0 Z2
G0 X65.61252293 Y30.21254441
G0 Z-2
G1 X60.61252293 Y30.2125429 Z-2.5 F600
G1 X65.61252293 Y30.21254441 Z-3 F600
G1 X29.18754062 Y30.21253343 F600
G1 X29.18754054 Y29.78754368 F600
G1 X65.61252256 Y29.78754732 F600
G1 X65.61252293 Y30.21254441 F600
G1 X65.61252255 Y31.48254441 F600
G1 X27.91754086 Y31.48253305 F600
G1 X27.9175403 Y28.51754355 F600
G1 X66.88252145 Y28.51754745 F600
G1 X66.88252405 Y31.48254479 F600
G1 X65.61252255 Y31.48254441 F600
G1 X65.61252217 Y32.75254441 F600
G1 X26.6475411 Y32.75253266 F600
G1 X26.64754006 Y27.24754343 F600
G1 X68.15252033 Y27.24754758 F600
G1 X68.15252517 Y32.75254517 F600
G1 X65.61252217 Y32.75254441 F600
G1 X65.61252179 Y34.02254441 F600
G1 X25.37754134 Y34.02253228 F600
G1 X25.37753983 Y25.9775433 F600
G1 X69.42251921 Y25.9775477 F600
G1 X69.42252628 Y34.02254556 F600
G1 X65.61252179 Y34.02254441 F600
G1 X65.6125214 Y35.29254441 F600
G1 X24.10754157 Y35.2925319 F600
G1 X24.10753959 Y24.70754317 F600
G1 X70.6925181 Y24.70754783 F600
G1 X70.6925274 Y35.29254594 F600
G1 X65.6125214 Y35.29254441 F600
G1 X65.61252102 Y36.56254441 F600
G1 X22.83754181 Y36.56253152 F600
G1 X22.83753935 Y23.43754304 F600
G1 X71.96251698 Y23.43754796 F600
G1 X71.96252852 Y36.56254632 F600
G1 X65.61252102 Y36.56254441 F600
G1 X65.61252064 Y37.83254441 F600
G1 X21.56754205 Y37.83253113 F600
G1 X21.56753911 Y22.16754292 F600
G1 X73.23251586 Y22.16754809 F600
G1 X73.23252963 Y37.8325467 F600
G1 X65.61252064 Y37.83254441 F600
G1 X65.61252026 Y39.10254441 F600
G1 X20.29754229 Y39.10253075 F600
G1 X20.29753887 Y20.89754279 F600
G1 X74.50251475 Y20.89754821 F600
G1 X74.50253075 Y39.10254709 F600
G1 X65.61252026 Y39.10254441 F600
G1 X65.61251987 Y40.37254441 F600
G1 X19.02754253 Y40.37253037 F600
G1 X19.02753864 Y19.62754266 F600
G1 X75.77251363 Y19.62754834 F600
G1 X75.77253186 Y40.37254747 F600
G1 X65.61251987 Y40.37254441 F600
G1 X65.61251949 Y41.64254441 F600
G1 X17.75754276 Y41.64252998 F600
G1 X17.7575384 Y18.35754254 F600
G1 X77.04251252 Y18.35754847 F600
G1 X77.04253298 Y41.64254785 F600
G1 X65.61251949 Y41.64254441 F600
G1 X65.61251911 Y42.91254441 F600
G1 X16.487543 Y42.9125296 F600
G1 X16.48753816 Y17.08754241 F600
G1 X78.3125114 Y17.08754859 F600
G1 X78.3125341 Y42.91254823 F600
G1 X65.61251911 Y42.91254441 F600
G0 Z2
G0 X65.61252293 Y30.21254441
G0 Z-3
G1 X60.61252293 Y30.2125429 Z-3.5 F600
G1 X65.61252293 Y30.21254441 Z-4 F600
G1 X29.18754062 Y30.21253343 F600
G1 X29.18754054 Y29.78754368 F600
G1 X65.61252256 Y29.78754732 F600
G1 X65.61252293 Y30.21254441 F600
G1 X65.61252255 Y31.48254441 F600
G1 X27.91754086 Y31.48253305 F600
G1 X27.9175403 Y28.51754355 F600
G1 X66.88252145 Y28.51754745 F600
G1 X66.88252405 Y31.48254479 F600
G1 X65.61252255 Y31.48254441 F600
G1 X65.61252217 Y32.75254441 F600
G1 X26.6475411 Y32.75253266 F600
G1 X26.64754006 Y27.24754343 F600
G1 X68.15252033 Y27.24754758 F600
G1 X68.15252517 Y32.75254517 F600
G1 X65.61252217 Y32.75254441 F600
G1 X65.61252179 Y34.02254441 F600
G1 X25.37754134 Y34.02253228 F600
G1 X25.37753983 Y25.9775433 F600
G1 X69.42251921 Y25.9775477 F600
G1 X69.42252628 Y34.02254556 F600
G1 X65.61252179 Y34.02254441 F600
G1 X65.6125214 Y35.29254441 F600
G1 X24.10754157 Y35.2925319 F600
G1 X24.10753959 Y24.70754317 F600
G1 X70.6925181 Y24.70754783 F600
G1 X70.6925274 Y35.29254594 F600
G1 X65.6125214 Y35.29254441 F600
G1 X65.61252102 Y36.56254441 F600
G1 X22.83754181 Y36.56253152 F600
G1 X22.83753935 Y23.43754304 F600
G1 X71.96251698 Y23.43754796 F600
G1 X71.96252852 Y36.56254632 F600
G1 X65.61252102 Y36.56254441 F600
G1 X65.61252064 Y37.83254441 F600
G1 X21.56754205 Y37.83253113 F600
G1 X21.56753911 Y22.16754292 F600
G1 X73.23251586 Y22.16754809 F600
G1 X73.23252963 Y37.8325467 F600
G1 X65.61252064 Y37.83254441 F600
G1 X65.61252026 Y39.10254441 F600
G1 X20.29754229 Y39.10253075 F600
G1 X20.29753887 Y20.89754279 F600
G1 X74.50251475 Y20.89754821 F600
G1 X74.50253075 Y39.10254709 F600
G1 X65.61252026 Y39.10254441 F600
G1 X65.61251987 Y40.37254441 F600
G1 X19.02754253 Y40.37253037 F600
G1 X19.02753864 Y19.62754266 F600
G1 X75.77251363 Y19.62754834 F600
G1 X75.77253186 Y40.37254747 F600
G1 X65.61251987 Y40.37254441 F600
G1 X65.61251949 Y41.64254441 F600
G1 X17.75754276 Y41.64252998 F600
G1 X17.7575384 Y18.35754254 F600
G1 X77.04251252 Y18.35754847 F600
G1 X77.04253298 Y41.64254785 F600
G1 X65.61251949 Y41.64254441 F600
G1 X65.61251911 Y42.91254441 F600
G1 X16.487543 Y42.9125296 F600
G1 X16.48753816 Y17.08754241 F600
G1 X78.3125114 Y17.08754859 F600
G1 X78.3125341 Y42.91254823 F600
G1 X65.61251911 Y42.91254441 F600
G0 Z2
G0 X65.61252293 Y30.21254441
G0 Z-4
G1 X60.61252293 Y30.2125429 Z-4.5 F600
G1 X65.61252293 Y30.21254441 Z-5 F600
G1 X29.18754062 Y30.21253343 F600
G1 X29.18754054 Y29.78754368 F600
G1 X65.61252256 Y29.78754732 F600
G1 X65.61252293 Y30.21254441 F600
G1 X65.61252255 Y31.48254441 F600
G1 X27.91754086 Y31.48253305 F600
G1 X27.9175403 Y28.51754355 F600
G1 X66.88252145 Y28.51754745 F600
G1 X66.88252405 Y31.48254479 F600
G1 X65.61252255 Y31.48254441 F600
G1 X65.61252217 Y32.75254441 F600
G1 X26.6475411 Y32.75253266 F600
G1 X26.64754006 Y27.24754343 F600
G1 X68.15252033 Y27.24754758 F600
G1 X68.15252517 Y32.75254517 F600
G1 X65.61252217 Y32.75254441 F600
G1 X65.61252179 Y34.02254441 F600
G1 X25.37754134 Y34.02253228 F600
G1 X25.37753983 Y25.9775433 F600
G1 X69.42251921 Y25.9775477 F600
G1 X69.42252628 Y34.02254556 F600
G1 X65.61252179 Y34.02254441 F600
G1 X65.6125214 Y35.29254441 F600
G1 X24.10754157 Y35.2925319 F600
G1 X24.10753959 Y24.70754317 F600
G1 X70.6925181 Y24.70754783 F600
G1 X70.6925274 Y35.29254594 F600
G1 X65.6125214 Y35.29254441 F600
G1 X65.61252102 Y36.56254441 F600
G1 X22.83754181 Y36.56253152 F600
G1 X22.83753935 Y23.43754304 F600
G1 X71.96251698 Y23.43754796 F600
G1 X71.96252852 Y36.56254632 F600
G1 X65.61252102 Y36.56254441 F600
G1 X65.61252064 Y37.83254441 F600
G1 X21.56754205 Y37.83253113 F600
G1 X21.56753911 Y22.16754292 F600
G1 X73.23251586 Y22.16754809 F600
G1 X73.23252963 Y37.8325467 F600
G1 X65.61252064 Y37.83254441 F600
G1 X65.61252026 Y39.10254441 F600
G1 X20.29754229 Y39.10253075 F600
G1 X20.29753887 Y20.89754279 F600
G1 X74.50251475 Y20.89754821 F600
G1 X74.50253075 Y39.10254709 F600
G1 X65.61252026 Y39.10254441 F600
G1 X65.61251987 Y40.37254441 F600
G1 X19.02754253 Y40.37253037 F600
G1 X19.02753864 Y19.62754266 F600
G1 X75.77251363 Y19.62754834 F600
G1 X75.77253186 Y40.37254747 F600
G1 X65.61251987 Y40.37254441 F600
G1 X65.61251949 Y41.64254441 F600
G1 X17.75754276 Y41.64252998 F600
G1 X17.7575384 Y18.35754254 F600
G1 X77.04251252 Y18.35754847 F600
G1 X77.04253298 Y41.64254785 F600
G1 X65.61251949 Y41.64254441 F600
G1 X65.61251911 Y42.91254441 F600
G1 X16.487543 Y42.9125296 F600
G1 X16.48753816 Y17.08754241 F600
G1 X78.3125114 Y17.08754859 F600
G1 X78.3125341 Y42.91254823 F600
G1 X65.61251911 Y42.91254441 F600
G0 Z2
G0 X65.61252293 Y30.21254441
G0 Z-5
G1 X60.61252293 Y30.2125429 Z-5.5 F600
G1 X65.61252293 Y30.21254441 Z-6 F600
G1 X29.18754062 Y30.21253343 F600
G1 X29.18754054 Y29.78754368 F600
G1 X65.61252256 Y29.78754732 F600
G1 X65.61252293 Y30.21254441 F600
G1 X65.61252255 Y31.48254441 F600
G1 X27.91754086 Y31.48253305 F600
G1 X27.9175403 Y28.51754355 F600
G1 X66.88252145 Y28.51754745 F600
G1 X66.88252405 Y31.48254479 F600
G1 X65.61252255 Y31.48254441 F600
G1 X65.61252217 Y32.75254441 F600
G1 X26.6475411 Y32.75253266 F600
G1 X26.64754006 Y27.24754343 F600
G1 X68.15252033 Y27.24754758 F600
G1 X68.15252517 Y32.75254517 F600
G1 X65.61252217 Y32.75254441 F600
G1 X65.61252179 Y34.02254441 F600
G1 X25.37754134 Y34.02253228 F600
G1 X25.37753983 Y25.9775433 F600
G1 X69.42251921 Y25.9775477 F600
G1 X69.42252628 Y34.02254556 F600
G1 X65.61252179 Y34.02254441 F600
G1 X65.6125214 Y35.29254441 F600
G1 X24.10754157 Y35.2925319 F600
G1 X24.10753959 Y24.70754317 F600
G1 X70.6925181 Y24.70754783 F600
G1 X70.6925274 Y35.29254594 F600
G1 X65.6125214 Y35.29254441 F600
G1 X65.61252102 Y36.56254441 F600
G1 X22.83754181 Y36.56253152 F600
G1 X22.83753935 Y23.43754304 F600
G1 X71.96251698 Y23.43754796 F600
G1 X71.96252852 Y36.56254632 F600
G1 X65.61252102 Y36.56254441 F600
G1 X65.61252064 Y37.83254441 F600
G1 X21.56754205 Y37.83253113 F600
G1 X21.56753911 Y22.16754292 F600
G1 X73.23251586 Y22.16754809 F600
G1 X73.23252963 Y37.8325467 F600
G1 X65.61252064 Y37.83254441 F600
G1 X65.61252026 Y39.10254441 F600
G1 X20.29754229 Y39.10253075 F600
G1 X20.29753887 Y20.89754279 F600
G1 X74.50251475 Y20.89754821 F600
G1 X74.50253075 Y39.10254709 F600
G1 X65.61252026 Y39.10254441 F600
G1 X65.61251987 Y40.37254441 F600
G1 X19.02754253 Y40.37253037 F600
G1 X19.02753864 Y19.62754266 F600
G1 X75.77251363 Y19.62754834 F600
G1 X75.77253186 Y40.37254747 F600
G1 X65.61251987 Y40.37254441 F600
G1 X65.61251949 Y41.64254441 F600
G1 X17.75754276 Y41.64252998 F600
G1 X17.7575384 Y18.35754254 F600
G1 X77.04251252 Y18.35754847 F600
G1 X77.04253298 Y41.64254785 F600
G1 X65.61251949 Y41.64254441 F600
G1 X65.61251911 Y42.91254441 F600
G1 X16.487543 Y42.9125296 F600
G1 X16.48753816 Y17.08754241 F600
G1 X78.3125114 Y17.08754859 F600
G1 X78.3125341 Y42.91254823 F600
G1 X65.61251911 Y42.91254441 F600
G0 Z2
G0 X65.61252293 Y30.21254441
G0 Z-6
G1 X60.61252293 Y30.2125429 Z-6.5 F600
G1 X65.61252293 Y30.21254441 Z-7 F600
G1 X29.18754062 Y30.21253343 F600
G1 X29.18754054 Y29.78754368 F600
G1 X65.61252256 Y29.78754732 F600
G1 X65.61252293 Y30.21254441 F600
G1 X65.61252255 Y31.48254441 F600
G1 X27.91754086 Y31.48253305 F600
G1 X27.9175403 Y28.51754355 F600
G1 X66.88252145 Y28.51754745 F600
G1 X66.88252405 Y31.48254479 F600
G1 X65.61252255 Y31.48254441 F600
G1 X65.61252217 Y32.75254441 F600
G1 X26.6475411 Y32.75253266 F600
G1 X26.64754006 Y27.24754343 F600
G1 X68.15252033 Y27.24754758 F600
G1 X68.15252517 Y32.75254517 F600
G1 X65.61252217 Y32.75254441 F600
G1 X65.61252179 Y34.02254441 F600
G1 X25.37754134 Y34.02253228 F600
G1 X25.37753983 Y25.9775433 F600
G1 X69.42251921 Y25.9775477 F600
G1 X69.42252628 Y34.02254556 F600
G1 X65.61252179 Y34.02254441 F600
G1 X65.6125214 Y35.29254441 F600
G1 X24.10754157 Y35.2925319 F600
G1 X24.10753959 Y24.70754317 F600
G1 X70.6925181 Y24.70754783 F600
G1 X70.6925274 Y35.29254594 F600
G1 X65.6125214 Y35.29254441 F600
G1 X65.61252102 Y36.56254441 F600
G1 X22.83754181 Y36.56253152 F600
G1 X22.83753935 Y23.43754304 F600
G1 X71.96251698 Y23.43754796 F600
G1 X71.96252852 Y36.56254632 F600
G1 X65.61252102 Y36.56254441 F600
G1 X65.61252064 Y37.83254441 F600
G1 X21.56754205 Y37.83253113 F600
G1 X21.56753911 Y22.16754292 F600
G1 X73.23251586 Y22.16754809 F600
G1 X73.23252963 Y37.8325467 F600
G1 X65.61252064 Y37.83254441 F600
G1 X65.61252026 Y39.10254441 F600
G1 X20.29754229 Y39.10253075 F600
G1 X20.29753887 Y20.89754279 F600
G1 X74.50251475 Y20.89754821 F600
G1 X74.50253075 Y39.10254709 F600
G1 X65.61252026 Y39.10254441 F600
G1 X65.61251987 Y40.37254441 F600
G1 X19.02754253 Y40.37253037 F600
G1 X19.02753864 Y19.62754266 F600
G1 X75.77251363 Y19.62754834 F600
G1 X75.77253186 Y40.37254747 F600
G1 X65.61251987 Y40.37254441 F600
G1 X65.61251949 Y41.64254441 F600
G1 X17.75754276 Y41.64252998 F600
G1 X17.7575384 Y18.35754254 F600
G1 X77.04251252 Y18.35754847 F600
G1 X77.04253298 Y41.64254785 F600
G1 X65.61251949 Y41.64254441 F600
G1 X65.61251911 Y42.91254441 F600
G1 X16.487543 Y42.9125296 F600
G1 X16.48753816 Y17.08754241 F600
G1 X78.3125114 Y17.08754859 F600
G1 X78.3125341 Y42.91254823 F600
G1 X65.61251911 Y42.91254441 F600
G0 Z2
G0 X65.61252293 Y30.21254441
G0 Z-7
G1 X60.61252293 Y30.2125429 Z-7.5 F600
G1 X65.61252293 Y30.21254441 Z-8 F600
G1 X29.18754062 Y30.21253343 F600
G1 X29.18754054 Y29.78754368 F600
G1 X65.61252256 Y29.78754732 F600
G1 X65.61252293 Y30.21254441 F600
G1 X65.61252255 Y31.48254441 F600
G1 X27.91754086 Y31.48253305 F600
G1 X27.9175403 Y28.51754355 F600
G1 X66.88252145 Y28.51754745 F600
G1 X66.88252405 Y31.48254479 F600
G1 X65.61252255 Y31.48254441 F600
G1 X65.61252217 Y32.75254441 F600
G1 X26.6475411 Y32.75253266 F600
G1 X26.64754006 Y27.24754343 F600
G1 X68.15252033 Y27.24754758 F600
G1 X68.15252517 Y32.75254517 F600
G1 X65.61252217 Y32.75254441 F600
G1 X65.61252179 Y34.02254441 F600
G1 X25.37754134 Y34.02253228 F600
G1 X25.37753983 Y25.9775433 F600
G1 X69.42251921 Y25.9775477 F600
G1 X69.42252628 Y34.02254556 F600
G1 X65.61252179 Y34.02254441 F600
G1 X65.6125214 Y35.29254441 F600
G1 X24.10754157 Y35.2925319 F600
G1 X24.10753959 Y24.70754317 F600
G1 X70.6925181 Y24.70754783 F600
G1 X70.6925274 Y35.29254594 F600
G1 X65.6125214 Y35.29254441 F600
G1 X65.61252102 Y36.56254441 F600
G1 X22.83754181 Y36.56253152 F600
G1 X22.83753935 Y23.43754304 F600
G1 X71.96251698 Y23.43754796 F600
G1 X71.96252852 Y36.56254632 F600
G1 X65.61252102 Y36.56254441 F600
G1 X65.61252064 Y37.83254441 F600
G1 X21.56754205 Y37.83253113 F600
G1 X21.56753911 Y22.16754292 F600
G1 X73.23251586 Y22.16754809 F600
G1 X73.23252963 Y37.8325467 F600
G1 X65.61252064 Y37.83254441 F600
G1 X65.61252026 Y39.10254441 F600
G1 X20.29754229 Y39.10253075 F600
G1 X20.29753887 Y20.89754279 F600
G1 X74.50251475 Y20.89754821 F600
G1 X74.50253075 Y39.10254709 F600
G1 X65.61252026 Y39.10254441 F600
G1 X65.61251987 Y40.37254441 F600
G1 X19.02754253 Y40.37253037 F600
G1 X19.02753864 Y19.62754266 F600
G1 X75.77251363 Y19.62754834 F600
G1 X75.77253186 Y40.37254747 F600
G1 X65.61251987 Y40.37254441 F600
G1 X65.61251949 Y41.64254441 F600
G1 X17.75754276 Y41.64252998 F600
G1 X17.7575384 Y18.35754254 F600
G1 X77.04251252 Y18.35754847 F600
G1 X77.04253298 Y41.64254785 F600
G1 X65.61251949 Y41.64254441 F600
G1 X65.61251911 Y42.91254441 F600
G1 X16.487543 Y42.9125296 F600
G1 X16.48753816 Y17.08754241 F600
G1 X78.3125114 Y17.08754859 F600
G1 X78.3125341 Y42.91254823 F600
G1 X65.61251911 Y42.91254441 F600
G0 Z2
G0 X65.61252293 Y30.21254441
G0 Z-8
G1 X60.61252293 Y30.2125429 Z-8.5 F600
G1 X65.61252293 Y30.21254441 Z-9 F600
G1 X29.18754062 Y30.21253343 F600
G1 X29.18754054 Y29.78754368 F600
G1 X65.61252256 Y29.78754732 F600
G1 X65.61252293 Y30.21254441 F600
G1 X65.61252255 Y31.48254441 F600
G1 X27.91754086 Y31.48253305 F600
G1 X27.9175403 Y28.51754355 F600
G1 X66.88252145 Y28.51754745 F600
G1 X66.88252405 Y31.48254479 F600
G1 X65.61252255 Y31.48254441 F600
G1 X65.61252217 Y32.75254441 F600
G1 X26.6475411 Y32.75253266 F600
G1 X26.64754006 Y27.24754343 F600
G1 X68.15252033 Y27.24754758 F600
G1 X68.15252517 Y32.75254517 F600
G1 X65.61252217 Y32.75254441 F600
G1 X65.61252179 Y34.02254441 F600
G1 X25.37754134 Y34.02253228 F600
G1 X25.37753983 Y25.9775433 F600
G1 X69.42251921 Y25.9775477 F600
G1 X69.42252628 Y34.02254556 F600
G1 X65.61252179 Y34.02254441 F600
G1 X65.6125214 Y35.29254441 F600
G1 X24.10754157 Y35.2925319 F600
G1 X24.10753959 Y24.70754317 F600
G1 X70.6925181 Y24.70754783 F600
G1 X70.6925274 Y35.29254594 F600
G1 X65.6125214 Y35.29254441 F600
G1 X65.61252102 Y36.56254441 F600
G1 X22.83754181 Y36.56253152 F600
G1 X22.83753935 Y23.43754304 F600
G1 X71.96251698 Y23.43754796 F600
G1 X71.96252852 Y36.56254632 F600
G1 X65.61252102 Y36.56254441 F600
G1 X65.61252064 Y37.83254441 F600
G1 X21.56754205 Y37.83253113 F600
G1 X21.56753911 Y22.16754292 F600
G1 X73.23251586 Y22.16754809 F600
G1 X73.23252963 Y37.8325467 F600
G1 X65.61252064 Y37.83254441 F600
G1 X65.61252026 Y39.10254441 F600
G1 X20.29754229 Y39.10253075 F600
G1 X20.29753887 Y20.89754279 F600
G1 X74.50251475 Y20.89754821 F600
G1 X74.50253075 Y39.10254709 F600
G1 X65.61252026 Y39.10254441 F600
G1 X65.61251987 Y40.37254441 F600
G1 X19.02754253 Y40.37253037 F600
G1 X19.02753864 Y19.62754266 F600
G1 X75.77251363 Y19.62754834 F600
G1 X75.77253186 Y40.37254747 F600
G1 X65.61251987 Y40.37254441 F600
G1 X65.61251949 Y41.64254441 F600
G1 X17.75754276 Y41.64252998 F600
G1 X17.7575384 Y18.35754254 F600
G1 X77.04251252 Y18.35754847 F600
G1 X77.04253298 Y41.64254785 F600
G1 X65.61251949 Y41.64254441 F600
G1 X65.61251911 Y42.91254441 F600
G1 X16.487543 Y42.9125296 F600
G1 X16.48753816 Y17.08754241 F600
G1 X78.3125114 Y17.08754859 F600
G1 X78.3125341 Y42.91254823 F600
G1 X65.61251911 Y42.91254441 F600
G0 Z2
G0 X65.61252293 Y30.21254441
G0 Z-9
G1 X60.61252293 Y30.2125429 Z-9.5 F600
G1 X65.61252293 Y30.21254441 Z-10 F600
G1 X29.18754062 Y30.21253343 F600
G1 X29.18754054 Y29.78754368 F600
G1 X65.61252256 Y29.78754732 F600
G1 X65.61252293 Y30.21254441 F600
G1 X65.61252255 Y31.48254441 F600
G1 X27.91754086 Y31.48253305 F600
G1 X27.9175403 Y28.51754355 F600
G1 X66.88252145 Y28.51754745 F600
G1 X66.88252405 Y31.48254479 F600
G1 X65.61252255 Y31.48254441 F600
G1 X65.61252217 Y32.75254441 F600
G1 X26.6475411 Y32.75253266 F600
G1 X26.64754006 Y27.24754343 F600
G1 X68.15252033 Y27.24754758 F600
G1 X68.15252517 Y32.75254517 F600
G1 X65.61252217 Y32.75254441 F600
G1 X65.61252179 Y34.02254441 F600
G1 X25.37754134 Y34.02253228 F600
G1 X25.37753983 Y25.9775433 F600
G1 X69.42251921 Y25.9775477 F600
G1 X69.42252628 Y34.02254556 F600
G1 X65.61252179 Y34.02254441 F600
G1 X65.6125214 Y35.29254441 F600
G1 X24.10754157 Y35.2925319 F600
G1 X24.10753959 Y24.70754317 F600
G1 X70.6925181 Y24.70754783 F600
G1 X70.6925274 Y35.29254594 F600
G1 X65.6125214 Y35.29254441 F600
G1 X65.61252102 Y36.56254441 F600
G1 X22.83754181 Y36.56253152 F600
G1 X22.83753935 Y23.43754304 F600
G1 X71.96251698 Y23.43754796 F600
G1 X71.96252852 Y36.56254632 F600
G1 X65.61252102 Y36.56254441 F600
G1 X65.61252064 Y37.83254441 F600
G1 X21.56754205 Y37.83253113 F600
G1 X21.56753911 Y22.16754292 F600
G1 X73.23251586 Y22.16754809 F600
G1 X73.23252963 Y37.8325467 F600
G1 X65.61252064 Y37.83254441 F600
G1 X65.61252026 Y39.10254441 F600
G1 X20.29754229 Y39.10253075 F600
G1 X20.29753887 Y20.89754279 F600
G1 X74.50251475 Y20.89754821 F600
G1 X74.50253075 Y39.10254709 F600
G1 X65.61252026 Y39.10254441 F600
G1 X65.61251987 Y40.37254441 F600
G1 X19.02754253 Y40.37253037 F600
G1 X19.02753864 Y19.62754266 F600
G1 X75.77251363 Y19.62754834 F600
G1 X75.77253186 Y40.37254747 F600
G1 X65.61251987 Y40.37254441 F600
G1 X65.61251949 Y41.64254441 F600
G1 X17.75754276 Y41.64252998 F600
G1 X17.7575384 Y18.35754254 F600
G1 X77.04251252 Y18.35754847 F600
G1 X77.04253298 Y41.64254785 F600
G1 X65.61251949 Y41.64254441 F600
G1 X65.61251911 Y42.91254441 F600
G1 X16.487543 Y42.9125296 F600
G1 X16.48753816 Y17.08754241 F600
G1 X78.3125114 Y17.08754859 F600
G1 X78.3125341 Y42.91254823 F600
G1 X65.61251911 Y42.91254441 F600
G0 Z2
G0 X65.61252293 Y30.21254441
G0 Z-10
G1 X60.61252293 Y30.2125429 Z-10.5 F600
G1 X65.61252293 Y30.21254441 Z-11 F600
G1 X29.18754062 Y30.21253343 F600
G1 X29.18754054 Y29.78754368 F600
G1 X65.61252256 Y29.78754732 F600
G1 X65.61252293 Y30.21254441 F600
G1 X65.61252255 Y31.48254441 F600
G1 X27.91754086 Y31.48253305 F600
G1 X27.9175403 Y28.51754355 F600
G1 X66.88252145 Y28.51754745 F600
G1 X66.88252405 Y31.48254479 F600
G1 X65.61252255 Y31.48254441 F600
G1 X65.61252217 Y32.75254441 F600
G1 X26.6475411 Y32.75253266 F600
G1 X26.64754006 Y27.24754343 F600
G1 X68.15252033 Y27.24754758 F600
G1 X68.15252517 Y32.75254517 F600
G1 X65.61252217 Y32.75254441 F600
G1 X65.61252179 Y34.02254441 F600
G1 X25.37754134 Y34.02253228 F600
G1 X25.37753983 Y25.9775433 F600
G1 X69.42251921 Y25.9775477 F600
G1 X69.42252628 Y34.02254556 F600
G1 X65.61252179 Y34.02254441 F600
G1 X65.6125214 Y35.29254441 F600
G1 X24.10754157 Y35.2925319 F600
G1 X24.10753959 Y24.70754317 F600
G1 X70.6925181 Y24.70754783 F600
G1 X70.6925274 Y35.29254594 F600
G1 X65.6125214 Y35.29254441 F600
G1 X65.61252102 Y36.56254441 F600
G1 X22.83754181 Y36.56253152 F600
G1 X22.83753935 Y23.43754304 F600
G1 X71.96251698 Y23.43754796 F600
G1 X71.96252852 Y36.56254632 F600
G1 X65.61252102 Y36.56254441 F600
G1 X65.61252064 Y37.83254441 F600
G1 X21.56754205 Y37.83253113 F600
G1 X21.56753911 Y22.16754292 F600
G1 X73.23251586 Y22.16754809 F600
G1 X73.23252963 Y37.8325467 F600
G1 X65.61252064 Y37.83254441 F600
G1 X65.61252026 Y39.10254441 F600
G1 X20.29754229 Y39.10253075 F600
G1 X20.29753887 Y20.89754279 F600
G1 X74.50251475 Y20.89754821 F600
G1 X74.50253075 Y39.10254709 F600
G1 X65.61252026 Y39.10254441 F600
G1 X65.61251987 Y40.37254441 F600
G1 X19.02754253 Y40.37253037 F600
G1 X19.02753864 Y19.62754266 F600
G1 X75.77251363 Y19.62754834 F600
G1 X75.77253186 Y40.37254747 F600
G1 X65.61251987 Y40.37254441 F600
G1 X65.61251949 Y41.64254441 F600
G1 X17.75754276 Y41.64252998 F600
G1 X17.7575384 Y18.35754254 F600
G1 X77.04251252 Y18.35754847 F600
G1 X77.04253298 Y41.64254785 F600
G1 X65.61251949 Y41.64254441 F600
G1 X65.61251911 Y42.91254441 F600
G1 X16.487543 Y42.9125296 F600
G1 X16.48753816 Y17.08754241 F600
G1 X78.3125114 Y17.08754859 F600
G1 X78.3125341 Y42.91254823 F600
G1 X65.61251911 Y42.91254441 F600
G0 Z2
G0 X65.61252293 Y30.21254441
G0 Z-11
G1 X60.61252293 Y30.2125429 Z-11.5 F600
G1 X65.61252293 Y30.21254441 Z-12 F600
G1 X29.18754062 Y30.21253343 F600
G1 X29.18754054 Y29.78754368 F600
G1 X65.61252256 Y29.78754732 F600
G1 X65.61252293 Y30.21254441 F600
G1 X65.61252255 Y31.48254441 F600
G1 X27.91754086 Y31.48253305 F600
G1 X27.9175403 Y28.51754355 F600
G1 X66.88252145 Y28.51754745 F600
G1 X66.88252405 Y31.48254479 F600
G1 X65.61252255 Y31.48254441 F600
G1 X65.61252217 Y32.75254441 F600
G1 X26.6475411 Y32.75253266 F600
G1 X26.64754006 Y27.24754343 F600
G1 X68.15252033 Y27.24754758 F600
G1 X68.15252517 Y32.75254517 F600
G1 X65.61252217 Y32.75254441 F600
G1 X65.61252179 Y34.02254441 F600
G1 X25.37754134 Y34.02253228 F600
G1 X25.37753983 Y25.9775433 F600
G1 X69.42251921 Y25.9775477 F600
G1 X69.42252628 Y34.02254556 F600
G1 X65.61252179 Y34.02254441 F600
G1 X65.6125214 Y35.29254441 F600
G1 X24.10754157 Y35.2925319 F600
G1 X24.10753959 Y24.70754317 F600
G1 X70.6925181 Y24.70754783 F600
G1 X70.6925274 Y35.29254594 F600
G1 X65.6125214 Y35.29254441 F600
G1 X65.61252102 Y36.56254441 F600
G1 X22.83754181 Y36.56253152 F600
G1 X22.83753935 Y23.43754304 F600
G1 X71.96251698 Y23.43754796 F600
G1 X71.96252852 Y36.56254632 F600
G1 X65.61252102 Y36.56254441 F600
G1 X65.61252064 Y37.83254441 F600
G1 X21.56754205 Y37.83253113 F600
G1 X21.56753911 Y22.16754292 F600
G1 X73.23251586 Y22.16754809 F600
G1 X73.23252963 Y37.8325467 F600
G1 X65.61252064 Y37.83254441 F600
G1 X65.61252026 Y39.10254441 F600
G1 X20.29754229 Y39.10253075 F600
G1 X20.29753887 Y20.89754279 F600
G1 X74.50251475 Y20.89754821 F600
G1 X74.50253075 Y39.10254709 F600
G1 X65.61252026 Y39.10254441 F600
G1 X65.61251987 Y40.37254441 F600
G1 X19.02754253 Y40.37253037 F600
G1 X19.02753864 Y19.62754266 F600
G1 X75.77251363 Y19.62754834 F600
G1 X75.77253186 Y40.37254747 F600
G1 X65.61251987 Y40.37254441 F600
G1 X65.61251949 Y41.64254441 F600
G1 X17.75754276 Y41.64252998 F600
G1 X17.7575384 Y18.35754254 F600
G1 X77.04251252 Y18.35754847 F600
G1 X77.04253298 Y41.64254785 F600
G1 X65.61251949 Y41.64254441 F600
G1 X65.61251911 Y42.91254441 F600
G1 X16.487543 Y42.9125296 F600
G1 X16.48753816 Y17.08754241 F600
G1 X78.3125114 Y17.08754859 F600
G1 X78.3125341 Y42.91254823 F600
G1 X65.61251911 Y42.91254441 F600
G0 Z2

; BEGIN TOOLPATH 'pocket'
;   Files: support.svg
;   Operation: 
;    name  =  Pocket
;    type  =  POCKET
;    toolDiameter  =  3.175
;    targetDepth  =  18.5
;    safetyHeight  =  2
;    stepDown  =  1
;    feedRate  =  600
;    plungeRate  =  100
;    spindleSpeed  =  10000
;    stepOver  =  40
;    roughingClearance  =  0
;    direction  =  Counterclockwise
;    pattern  =  Nested
;    lineAngle  =  0
;    lineDirection  =  ZIGZAG
;    layerDirection  =  Outward
;    depthFirst  =  false
;    attack  =  Ramp
G0 X85.97253851 Y30.00004446
G0 Z0
G1 X85.89850816 Y30.37218949 Z-0.0381926 F600
G1 X85.68770212 Y30.68767837 Z-0.07638519 F600
G1 X85.37220286 Y30.89848458 Z-0.11457866 F600
G1 X85.00004668 Y30.97250358 Z-0.15277214 F600
G1 X84.62788106 Y30.89848077 Z-0.19096662 F600
G1 X84.31237396 Y30.6876683 Z-0.2291611 F600
G1 X84.1015632 Y30.37216368 Z-0.26735527 F600
G1 X84.0275434 Y30.00000053 Z-0.30554945 F600
G1 X84.10155267 Y29.62786995 Z-0.34374021 F600
G1 X84.31234335 Y29.31239281 Z-0.38193096 F600
G1 X84.62785838 Y29.10157453 Z-0.42012643 F600
G1 X85.00003344 Y29.02754881 Z-0.4583219 F600
G1 X85.40460727 Y29.11569505 Z-0.5 F600
G1 X85.00003344 Y29.02754881 Z-0.5416781 F600
G1 X84.62785838 Y29.10157453 Z-0.57987357 F600
G1 X84.31234335 Y29.31239281 Z-0.61806904 F600
G1 X84.10155267 Y29.62786995 Z-0.65625979 F600
G1 X84.0275434 Y30.00000053 Z-0.69445055 F600
G1 X84.1015632 Y30.37216368 Z-0.73264473 F600
G1 X84.31237396 Y30.6876683 Z-0.7708389 F600
G1 X84.62788106 Y30.89848077 Z-0.80903338 F600
G1 X85.00004668 Y30.97250358 Z-0.84722786 F600
G1 X85.37220286 Y30.89848458 Z-0.88542134 F600
G1 X85.68770212 Y30.68767837 Z-0.92361481 F600
G1 X85.89850816 Y30.37218949 Z-0.9618074 F600
G1 X85.97253851 Y30.00004446 Z-1 F600
G3 I-0.97248673 J-0.00001967 X85.68770212 Y30.68767837 F600
G3 I-0.68763118 J-0.68763442 X85.00004668 Y30.97250358 F600
G3 I-0.00001805 J-0.97249206 X84.31237396 Y30.6876683 F600
G3 I0.68763819 J-0.68764031 X84.0275434 Y30.00000053 F600
G3 I0.97236515 J-0.00004094 X84.31234335 Y29.31239281 F600
G3 I0.68767536 J0.68767695 X85.00003344 Y29.02754881 F600
G3 I0.00001376 J0.97246707 X85.68768328 Y29.31237585 F600
G3 I-0.68769462 J0.68769856 X85.97253851 Y30.00004446 F600
G1 X87.2425385 Y30.00003774 F600
G3 I-2.24248673 J-0.00001295 X86.58572561 Y31.5857061 F600
G3 I-1.58565467 J-1.58566214 X85.00004263 Y32.24250358 F600
G3 I-0.000014 J-2.24249206 X83.41434973 Y31.5856953 F600
G3 I1.58566243 J-1.5856673 X82.7575434 Y30.00000933 F600
G3 I2.24236515 J-0.00004974 X83.41431878 Y28.41436616 F600
G3 I1.58569993 J1.5857036 X85.00003407 Y27.75754881 F600
G3 I0.00001312 J2.24246707 X86.58570632 Y28.41434767 F600
G3 I-1.58571766 J1.58572674 X87.2425385 Y30.00003774 F600
G1 X88.5125385 Y30.00003102 F600
G3 I-3.51248673 J-0.00000624 X87.48374911 Y32.48373382 F600
G3 I-2.48367817 J-2.48368987 X85.00003858 Y33.51250358 F600
G3 I-0.00000995 J-3.51249206 X82.51632549 Y32.48372229 F600
G3 I2.48368666 J-2.48369429 X81.4875434 Y30.00001813 F600
G3 I3.51236515 J-0.00005853 X82.5162942 Y27.51633951 F600
G3 I2.48372451 J2.48373025 X85.0000347 Y26.48754881 F600
G3 I0.00001249 J3.51246707 X87.48372936 Y27.51631949 F600
G3 I-2.4837407 J2.48375492 X88.5125385 Y30.00003102 F600
G0 Z2
G0 X85.97253851 Y30.00004446
G0 Z-1
G1 X85.89850816 Y30.37218949 Z-1.0381926 F600
G1 X85.68770212 Y30.68767837 Z-1.07638519 F600
G1 X85.37220286 Y30.89848458 Z-1.11457866 F600
G1 X85.00004668 Y30.97250358 Z-1.15277214 F600
G1 X84.62788106 Y30.89848077 Z-1.19096662 F600
G1 X84.31237396 Y30.6876683 Z-1.2291611 F600
G1 X84.1015632 Y30.37216368 Z-1.26735527 F600
G1 X84.0275434 Y30.00000053 Z-1.30554945 F600
G1 X84.10155267 Y29.62786995 Z-1.34374021 F600
G1 X84.31234335 Y29.31239281 Z-1.38193096 F600
G1 X84.62785838 Y29.10157453 Z-1.42012643 F600
G1 X85.00003344 Y29.02754881 Z-1.4583219 F600
G1 X85.40460727 Y29.11569505 Z-1.5 F600
G1 X85.00003344 Y29.02754881 Z-1.5416781 F600
G1 X84.62785838 Y29.10157453 Z-1.57987357 F600
G1 X84.31234335 Y29.31239281 Z-1.61806904 F600
G1 X84.10155267 Y29.62786995 Z-1.65625979 F600
G1 X84.0275434 Y30.00000053 Z-1.69445055 F600
G1 X84.1015632 Y30.37216368 Z-1.73264473 F600
G1 X84.31237396 Y30.6876683 Z-1.7708389 F600
G1 X84.62788106 Y30.89848077 Z-1.80903338 F600
G1 X85.00004668 Y30.97250358 Z-1.84722786 F600
G1 X85.37220286 Y30.89848458 Z-1.88542134 F600
G1 X85.68770212 Y30.68767837 Z-1.92361481 F600
G1 X85.89850816 Y30.37218949 Z-1.9618074 F600
G1 X85.97253851 Y30.00004446 Z-2 F600
G3 I-0.97248673 J-0.00001967 X85.68770212 Y30.68767837 F600
G3 I-0.68763118 J-0.68763442 X85.00004668 Y30.97250358 F600
G3 I-0.00001805 J-0.97249206 X84.31237396 Y30.6876683 F600
G3 I0.68763819 J-0.68764031 X84.0275434 Y30.00000053 F600
G3 I0.97236515 J-0.00004094 X84.31234335 Y29.31239281 F600
G3 I0.68767536 J0.68767695 X85.00003344 Y29.02754881 F600
G3 I0.00001376 J0.97246707 X85.68768328 Y29.31237585 F600
G3 I-0.68769462 J0.68769856 X85.97253851 Y30.00004446 F600
G1 X87.2425385 Y30.00003774 F600
G3 I-2.24248673 J-0.00001295 X86.58572561 Y31.5857061 F600
G3 I-1.58565467 J-1.58566214 X85.00004263 Y32.24250358 F600
G3 I-0.000014 J-2.24249206 X83.41434973 Y31.5856953 F600
G3 I1.58566243 J-1.5856673 X82.7575434 Y30.00000933 F600
G3 I2.24236515 J-0.00004974 X83.41431878 Y28.41436616 F600
G3 I1.58569993 J1.5857036 X85.00003407 Y27.75754881 F600
G3 I0.00001312 J2.24246707 X86.58570632 Y28.41434767 F600
G3 I-1.58571766 J1.58572674 X87.2425385 Y30.00003774 F600
G1 X88.5125385 Y30.00003102 F600
G3 I-3.51248673 J-0.00000624 X87.48374911 Y32.48373382 F600
G3 I-2.48367817 J-2.48368987 X85.00003858 Y33.51250358 F600
G3 I-0.00000995 J-3.51249206 X82.51632549 Y32.48372229 F600
G3 I2.48368666 J-2.48369429 X81.4875434 Y30.00001813 F600
G3 I3.51236515 J-0.00005853 X82.5162942 Y27.51633951 F600
G3 I2.48372451 J2.48373025 X85.0000347 Y26.48754881 F600
G3 I0.00001249 J3.51246707 X87.48372936 Y27.51631949 F600
G3 I-2.4837407 J2.48375492 X88.5125385 Y30.00003102 F600
G0 Z2
G0 X85.97253851 Y30.00004446
G0 Z-2
G1 X85.89850816 Y30.37218949 Z-2.0381926 F600
G1 X85.68770212 Y30.68767837 Z-2.07638519 F600
G1 X85.37220286 Y30.89848458 Z-2.11457866 F600
G1 X85.00004668 Y30.97250358 Z-2.15277214 F600
G1 X84.62788106 Y30.89848077 Z-2.19096662 F600
G1 X84.31237396 Y30.6876683 Z-2.2291611 F600
G1 X84.1015632 Y30.37216368 Z-2.26735527 F600
G1 X84.0275434 Y30.00000053 Z-2.30554945 F600
G1 X84.10155267 Y29.62786995 Z-2.34374021 F600
G1 X84.31234335 Y29.31239281 Z-2.38193096 F600
G1 X84.62785838 Y29.10157453 Z-2.42012643 F600
G1 X85.00003344 Y29.02754881 Z-2.4583219 F600
G1 X85.40460727 Y29.11569505 Z-2.5 F600
G1 X85.00003344 Y29.02754881 Z-2.5416781 F600
G1 X84.62785838 Y29.10157453 Z-2.57987357 F600
G1 X84.31234335 Y29.31239281 Z-2.61806904 F600
G1 X84.10155267 Y29.62786995 Z-2.65625979 F600
G1 X84.0275434 Y30.00000053 Z-2.69445055 F600
G1 X84.1015632 Y30.37216368 Z-2.73264473 F600
G1 X84.31237396 Y30.6876683 Z-2.7708389 F600
G1 X84.62788106 Y30.89848077 Z-2.80903338 F600
G1 X85.00004668 Y30.97250358 Z-2.84722786 F600
G1 X85.37220286 Y30.89848458 Z-2.88542134 F600
G1 X85.68770212 Y30.68767837 Z-2.92361481 F600
G1 X85.89850816 Y30.37218949 Z-2.9618074 F600
G1 X85.97253851 Y30.00004446 Z-3 F600
G3 I-0.97248673 J-0.00001967 X85.68770212 Y30.68767837 F600
G3 I-0.68763118 J-0.68763442 X85.00004668 Y30.97250358 F600
G3 I-0.00001805 J-0.97249206 X84.31237396 Y30.6876683 F600
G3 I0.68763819 J-0.68764031 X84.0275434 Y30.00000053 F600
G3 I0.97236515 J-0.00004094 X84.31234335 Y29.31239281 F600
G3 I0.68767536 J0.68767695 X85.00003344 Y29.02754881 F600
G3 I0.00001376 J0.97246707 X85.68768328 Y29.31237585 F600
G3 I-0.68769462 J0.68769856 X85.97253851 Y30.00004446 F600
G1 X87.2425385 Y30.00003774 F600
G3 I-2.24248673 J-0.00001295 X86.58572561 Y31.5857061 F600
G3 I-1.58565467 J-1.58566214 X85.00004263 Y32.24250358 F600
G3 I-0.000014 J-2.24249206 X83.41434973 Y31.5856953 F600
G3 I1.58566243 J-1.5856673 X82.7575434 Y30.00000933 F600
G3 I2.24236515 J-0.00004974 X83.41431878 Y28.41436616 F600
G3 I1.58569993 J1.5857036 X85.00003407 Y27.75754881 F600
G3 I0.00001312 J2.24246707 X86.58570632 Y28.41434767 F600
G3 I-1.58571766 J1.58572674 X87.2425385 Y30.00003774 F600
G1 X88.5125385 Y30.00003102 F600
G3 I-3.51248673 J-0.00000624 X87.48374911 Y32.48373382 F600
G3 I-2.48367817 J-2.48368987 X85.00003858 Y33.51250358 F600
G3 I-0.00000995 J-3.51249206 X82.51632549 Y32.48372229 F600
G3 I2.48368666 J-2.48369429 X81.4875434 Y30.00001813 F600
G3 I3.51236515 J-0.00005853 X82.5162942 Y27.51633951 F600
G3 I2.48372451 J2.48373025 X85.0000347 Y26.48754881 F600
G3 I0.00001249 J3.51246707 X87.48372936 Y27.51631949 F600
G3 I-2.4837407 J2.48375492 X88.5125385 Y30.00003102 F600
G0 Z2
G0 X85.97253851 Y30.00004446
G0 Z-3
G1 X85.89850816 Y30.37218949 Z-3.0381926 F600
G1 X85.68770212 Y30.68767837 Z-3.07638519 F600
G1 X85.37220286 Y30.89848458 Z-3.11457866 F600
G1 X85.00004668 Y30.97250358 Z-3.15277214 F600
G1 X84.62788106 Y30.89848077 Z-3.19096662 F600
G1 X84.31237396 Y30.6876683 Z-3.2291611 F600
G1 X84.1015632 Y30.37216368 Z-3.26735527 F600
G1 X84.0275434 Y30.00000053 Z-3.30554945 F600
G1 X84.10155267 Y29.62786995 Z-3.34374021 F600
G1 X84.31234335 Y29.31239281 Z-3.38193096 F600
G1 X84.62785838 Y29.10157453 Z-3.42012643 F600
G1 X85.00003344 Y29.02754881 Z-3.4583219 F600
G1 X85.40460727 Y29.11569505 Z-3.5 F600
G1 X85.00003344 Y29.02754881 Z-3.5416781 F600
G1 X84.62785838 Y29.10157453 Z-3.57987357 F600
G1 X84.31234335 Y29.31239281 Z-3.61806904 F600
G1 X84.10155267 Y29.62786995 Z-3.65625979 F600
G1 X84.0275434 Y30.00000053 Z-3.69445055 F600
G1 X84.1015632 Y30.37216368 Z-3.73264473 F600
G1 X84.31237396 Y30.6876683 Z-3.7708389 F600
G1 X84.62788106 Y30.89848077 Z-3.80903338 F600
G1 X85.00004668 Y30.97250358 Z-3.84722786 F600
G1 X85.37220286 Y30.89848458 Z-3.88542134 F600
G1 X85.68770212 Y30.68767837 Z-3.92361481 F600
G1 X85.89850816 Y30.37218949 Z-3.9618074 F600
G1 X85.97253851 Y30.00004446 Z-4 F600
G3 I-0.97248673 J-0.00001967 X85.68770212 Y30.68767837 F600
G3 I-0.68763118 J-0.68763442 X85.00004668 Y30.97250358 F600
G3 I-0.00001805 J-0.97249206 X84.31237396 Y30.6876683 F600
G3 I0.68763819 J-0.68764031 X84.0275434 Y30.00000053 F600
G3 I0.97236515 J-0.00004094 X84.31234335 Y29.31239281 F600
G3 I0.68767536 J0.68767695 X85.00003344 Y29.02754881 F600
G3 I0.00001376 J0.97246707 X85.68768328 Y29.31237585 F600
G3 I-0.68769462 J0.68769856 X85.97253851 Y30.00004446 F600
G1 X87.2425385 Y30.00003774 F600
G3 I-2.24248673 J-0.00001295 X86.58572561 Y31.5857061 F600
G3 I-1.58565467 J-1.58566214 X85.00004263 Y32.24250358 F600
G3 I-0.000014 J-2.24249206 X83.41434973 Y31.5856953 F600
G3 I1.58566243 J-1.5856673 X82.7575434 Y30.00000933 F600
G3 I2.24236515 J-0.00004974 X83.41431878 Y28.41436616 F600
G3 I1.58569993 J1.5857036 X85.00003407 Y27.75754881 F600
G3 I0.00001312 J2.24246707 X86.58570632 Y28.41434767 F600
G3 I-1.58571766 J1.58572674 X87.2425385 Y30.00003774 F600
G1 X88.5125385 Y30.00003102 F600
G3 I-3.51248673 J-0.00000624 X87.48374911 Y32.48373382 F600
G3 I-2.48367817 J-2.48368987 X85.00003858 Y33.51250358 F600
G3 I-0.00000995 J-3.51249206 X82.51632549 Y32.48372229 F600
G3 I2.48368666 J-2.48369429 X81.4875434 Y30.00001813 F600
G3 I3.51236515 J-0.00005853 X82.5162942 Y27.51633951 F600
G3 I2.48372451 J2.48373025 X85.0000347 Y26.48754881 F600
G3 I0.00001249 J3.51246707 X87.48372936 Y27.51631949 F600
G3 I-2.4837407 J2.48375492 X88.5125385 Y30.00003102 F600
G0 Z2
G0 X85.97253851 Y30.00004446
G0 Z-4
G1 X85.89850816 Y30.37218949 Z-4.0381926 F600
G1 X85.68770212 Y30.68767837 Z-4.07638519 F600
G1 X85.37220286 Y30.89848458 Z-4.11457866 F600
G1 X85.00004668 Y30.97250358 Z-4.15277214 F600
G1 X84.62788106 Y30.89848077 Z-4.19096662 F600
G1 X84.31237396 Y30.6876683 Z-4.2291611 F600
G1 X84.1015632 Y30.37216368 Z-4.26735527 F600
G1 X84.0275434 Y30.00000053 Z-4.30554945 F600
G1 X84.10155267 Y29.62786995 Z-4.34374021 F600
G1 X84.31234335 Y29.31239281 Z-4.38193096 F600
G1 X84.62785838 Y29.10157453 Z-4.42012643 F600
G1 X85.00003344 Y29.02754881 Z-4.4583219 F600
G1 X85.40460727 Y29.11569505 Z-4.5 F600
G1 X85.00003344 Y29.02754881 Z-4.5416781 F600
G1 X84.62785838 Y29.10157453 Z-4.57987357 F600
G1 X84.31234335 Y29.31239281 Z-4.61806904 F600
G1 X84.10155267 Y29.62786995 Z-4.65625979 F600
G1 X84.0275434 Y30.00000053 Z-4.69445055 F600
G1 X84.1015632 Y30.37216368 Z-4.73264473 F600
G1 X84.31237396 Y30.6876683 Z-4.7708389 F600
G1 X84.62788106 Y30.89848077 Z-4.80903338 F600
G1 X85.00004668 Y30.97250358 Z-4.84722786 F600
G1 X85.37220286 Y30.89848458 Z-4.88542134 F600
G1 X85.68770212 Y30.68767837 Z-4.92361481 F600
G1 X85.89850816 Y30.37218949 Z-4.9618074 F600
G1 X85.97253851 Y30.00004446 Z-5 F600
G3 I-0.97248673 J-0.00001967 X85.68770212 Y30.68767837 F600
G3 I-0.68763118 J-0.68763442 X85.00004668 Y30.97250358 F600
G3 I-0.00001805 J-0.97249206 X84.31237396 Y30.6876683 F600
G3 I0.68763819 J-0.68764031 X84.0275434 Y30.00000053 F600
G3 I0.97236515 J-0.00004094 X84.31234335 Y29.31239281 F600
G3 I0.68767536 J0.68767695 X85.00003344 Y29.02754881 F600
G3 I0.00001376 J0.97246707 X85.68768328 Y29.31237585 F600
G3 I-0.68769462 J0.68769856 X85.97253851 Y30.00004446 F600
G1 X87.2425385 Y30.00003774 F600
G3 I-2.24248673 J-0.00001295 X86.58572561 Y31.5857061 F600
G3 I-1.58565467 J-1.58566214 X85.00004263 Y32.24250358 F600
G3 I-0.000014 J-2.24249206 X83.41434973 Y31.5856953 F600
G3 I1.58566243 J-1.5856673 X82.7575434 Y30.00000933 F600
G3 I2.24236515 J-0.00004974 X83.41431878 Y28.41436616 F600
G3 I1.58569993 J1.5857036 X85.00003407 Y27.75754881 F600
G3 I0.00001312 J2.24246707 X86.58570632 Y28.41434767 F600
G3 I-1.58571766 J1.58572674 X87.2425385 Y30.00003774 F600
G1 X88.5125385 Y30.00003102 F600
G3 I-3.51248673 J-0.00000624 X87.48374911 Y32.48373382 F600
G3 I-2.48367817 J-2.48368987 X85.00003858 Y33.51250358 F600
G3 I-0.00000995 J-3.51249206 X82.51632549 Y32.48372229 F600
G3 I2.48368666 J-2.48369429 X81.4875434 Y30.00001813 F600
G3 I3.51236515 J-0.00005853 X82.5162942 Y27.51633951 F600
G3 I2.48372451 J2.48373025 X85.0000347 Y26.48754881 F600
G3 I0.00001249 J3.51246707 X87.48372936 Y27.51631949 F600
G3 I-2.4837407 J2.48375492 X88.5125385 Y30.00003102 F600
G0 Z2
G0 X85.97253851 Y30.00004446
G0 Z-5
G1 X85.89850816 Y30.37218949 Z-5.0381926 F600
G1 X85.68770212 Y30.68767837 Z-5.07638519 F600
G1 X85.37220286 Y30.89848458 Z-5.11457866 F600
G1 X85.00004668 Y30.97250358 Z-5.15277214 F600
G1 X84.62788106 Y30.89848077 Z-5.19096662 F600
G1 X84.31237396 Y30.6876683 Z-5.2291611 F600
G1 X84.1015632 Y30.37216368 Z-5.26735527 F600
G1 X84.0275434 Y30.00000053 Z-5.30554945 F600
G1 X84.10155267 Y29.62786995 Z-5.34374021 F600
G1 X84.31234335 Y29.31239281 Z-5.38193096 F600
G1 X84.62785838 Y29.10157453 Z-5.42012643 F600
G1 X85.00003344 Y29.02754881 Z-5.4583219 F600
G1 X85.40460727 Y29.11569505 Z-5.5 F600
G1 X85.00003344 Y29.02754881 Z-5.5416781 F600
G1 X84.62785838 Y29.10157453 Z-5.57987357 F600
G1 X84.31234335 Y29.31239281 Z-5.61806904 F600
G1 X84.10155267 Y29.62786995 Z-5.65625979 F600
G1 X84.0275434 Y30.00000053 Z-5.69445055 F600
G1 X84.1015632 Y30.37216368 Z-5.73264473 F600
G1 X84.31237396 Y30.6876683 Z-5.7708389 F600
G1 X84.62788106 Y30.89848077 Z-5.80903338 F600
G1 X85.00004668 Y30.97250358 Z-5.84722786 F600
G1 X85.37220286 Y30.89848458 Z-5.88542134 F600
G1 X85.68770212 Y30.68767837 Z-5.92361481 F600
G1 X85.89850816 Y30.37218949 Z-5.9618074 F600
G1 X85.97253851 Y30.00004446 Z-6 F600
G3 I-0.97248673 J-0.00001967 X85.68770212 Y30.68767837 F600
G3 I-0.68763118 J-0.68763442 X85.00004668 Y30.97250358 F600
G3 I-0.00001805 J-0.97249206 X84.31237396 Y30.6876683 F600
G3 I0.68763819 J-0.68764031 X84.0275434 Y30.00000053 F600
G3 I0.97236515 J-0.00004094 X84.31234335 Y29.31239281 F600
G3 I0.68767536 J0.68767695 X85.00003344 Y29.02754881 F600
G3 I0.00001376 J0.97246707 X85.68768328 Y29.31237585 F600
G3 I-0.68769462 J0.68769856 X85.97253851 Y30.00004446 F600
G1 X87.2425385 Y30.00003774 F600
G3 I-2.24248673 J-0.00001295 X86.58572561 Y31.5857061 F600
G3 I-1.58565467 J-1.58566214 X85.00004263 Y32.24250358 F600
G3 I-0.000014 J-2.24249206 X83.41434973 Y31.5856953 F600
G3 I1.58566243 J-1.5856673 X82.7575434 Y30.00000933 F600
G3 I2.24236515 J-0.00004974 X83.41431878 Y28.41436616 F600
G3 I1.58569993 J1.5857036 X85.00003407 Y27.75754881 F600
G3 I0.00001312 J2.24246707 X86.58570632 Y28.41434767 F600
G3 I-1.58571766 J1.58572674 X87.2425385 Y30.00003774 F600
G1 X88.5125385 Y30.00003102 F600
G3 I-3.51248673 J-0.00000624 X87.48374911 Y32.48373382 F600
G3 I-2.48367817 J-2.48368987 X85.00003858 Y33.51250358 F600
G3 I-0.00000995 J-3.51249206 X82.51632549 Y32.48372229 F600
G3 I2.48368666 J-2.48369429 X81.4875434 Y30.00001813 F600
G3 I3.51236515 J-0.00005853 X82.5162942 Y27.51633951 F600
G3 I2.48372451 J2.48373025 X85.0000347 Y26.48754881 F600
G3 I0.00001249 J3.51246707 X87.48372936 Y27.51631949 F600
G3 I-2.4837407 J2.48375492 X88.5125385 Y30.00003102 F600
G0 Z2
G0 X85.97253851 Y30.00004446
G0 Z-6
G1 X85.89850816 Y30.37218949 Z-6.0381926 F600
G1 X85.68770212 Y30.68767837 Z-6.07638519 F600
G1 X85.37220286 Y30.89848458 Z-6.11457866 F600
G1 X85.00004668 Y30.97250358 Z-6.15277214 F600
G1 X84.62788106 Y30.89848077 Z-6.19096662 F600
G1 X84.31237396 Y30.6876683 Z-6.2291611 F600
G1 X84.1015632 Y30.37216368 Z-6.26735527 F600
G1 X84.0275434 Y30.00000053 Z-6.30554945 F600
G1 X84.10155267 Y29.62786995 Z-6.34374021 F600
G1 X84.31234335 Y29.31239281 Z-6.38193096 F600
G1 X84.62785838 Y29.10157453 Z-6.42012643 F600
G1 X85.00003344 Y29.02754881 Z-6.4583219 F600
G1 X85.40460727 Y29.11569505 Z-6.5 F600
G1 X85.00003344 Y29.02754881 Z-6.5416781 F600
G1 X84.62785838 Y29.10157453 Z-6.57987357 F600
G1 X84.31234335 Y29.31239281 Z-6.61806904 F600
G1 X84.10155267 Y29.62786995 Z-6.65625979 F600
G1 X84.0275434 Y30.00000053 Z-6.69445055 F600
G1 X84.1015632 Y30.37216368 Z-6.73264473 F600
G1 X84.31237396 Y30.6876683 Z-6.7708389 F600
G1 X84.62788106 Y30.89848077 Z-6.80903338 F600
G1 X85.00004668 Y30.97250358 Z-6.84722786 F600
G1 X85.37220286 Y30.89848458 Z-6.88542134 F600
G1 X85.68770212 Y30.68767837 Z-6.92361481 F600
G1 X85.89850816 Y30.37218949 Z-6.9618074 F600
G1 X85.97253851 Y30.00004446 Z-7 F600
G3 I-0.97248673 J-0.00001967 X85.68770212 Y30.68767837 F600
G3 I-0.68763118 J-0.68763442 X85.00004668 Y30.97250358 F600
G3 I-0.00001805 J-0.97249206 X84.31237396 Y30.6876683 F600
G3 I0.68763819 J-0.68764031 X84.0275434 Y30.00000053 F600
G3 I0.97236515 J-0.00004094 X84.31234335 Y29.31239281 F600
G3 I0.68767536 J0.68767695 X85.00003344 Y29.02754881 F600
G3 I0.00001376 J0.97246707 X85.68768328 Y29.31237585 F600
G3 I-0.68769462 J0.68769856 X85.97253851 Y30.00004446 F600
G1 X87.2425385 Y30.00003774 F600
G3 I-2.24248673 J-0.00001295 X86.58572561 Y31.5857061 F600
G3 I-1.58565467 J-1.58566214 X85.00004263 Y32.24250358 F600
G3 I-0.000014 J-2.24249206 X83.41434973 Y31.5856953 F600
G3 I1.58566243 J-1.5856673 X82.7575434 Y30.00000933 F600
G3 I2.24236515 J-0.00004974 X83.41431878 Y28.41436616 F600
G3 I1.58569993 J1.5857036 X85.00003407 Y27.75754881 F600
G3 I0.00001312 J2.24246707 X86.58570632 Y28.41434767 F600
G3 I-1.58571766 J1.58572674 X87.2425385 Y30.00003774 F600
G1 X88.5125385 Y30.00003102 F600
G3 I-3.51248673 J-0.00000624 X87.48374911 Y32.48373382 F600
G3 I-2.48367817 J-2.48368987 X85.00003858 Y33.51250358 F600
G3 I-0.00000995 J-3.51249206 X82.51632549 Y32.48372229 F600
G3 I2.48368666 J-2.48369429 X81.4875434 Y30.00001813 F600
G3 I3.51236515 J-0.00005853 X82.5162942 Y27.51633951 F600
G3 I2.48372451 J2.48373025 X85.0000347 Y26.48754881 F600
G3 I0.00001249 J3.51246707 X87.48372936 Y27.51631949 F600
G3 I-2.4837407 J2.48375492 X88.5125385 Y30.00003102 F600
G0 Z2
G0 X85.97253851 Y30.00004446
G0 Z-7
G1 X85.89850816 Y30.37218949 Z-7.0381926 F600
G1 X85.68770212 Y30.68767837 Z-7.07638519 F600
G1 X85.37220286 Y30.89848458 Z-7.11457866 F600
G1 X85.00004668 Y30.97250358 Z-7.15277214 F600
G1 X84.62788106 Y30.89848077 Z-7.19096662 F600
G1 X84.31237396 Y30.6876683 Z-7.2291611 F600
G1 X84.1015632 Y30.37216368 Z-7.26735527 F600
G1 X84.0275434 Y30.00000053 Z-7.30554945 F600
G1 X84.10155267 Y29.62786995 Z-7.34374021 F600
G1 X84.31234335 Y29.31239281 Z-7.38193096 F600
G1 X84.62785838 Y29.10157453 Z-7.42012643 F600
G1 X85.00003344 Y29.02754881 Z-7.4583219 F600
G1 X85.40460727 Y29.11569505 Z-7.5 F600
G1 X85.00003344 Y29.02754881 Z-7.5416781 F600
G1 X84.62785838 Y29.10157453 Z-7.57987357 F600
G1 X84.31234335 Y29.31239281 Z-7.61806904 F600
G1 X84.10155267 Y29.62786995 Z-7.65625979 F600
G1 X84.0275434 Y30.00000053 Z-7.69445055 F600
G1 X84.1015632 Y30.37216368 Z-7.73264473 F600
G1 X84.31237396 Y30.6876683 Z-7.7708389 F600
G1 X84.62788106 Y30.89848077 Z-7.80903338 F600
G1 X85.00004668 Y30.97250358 Z-7.84722786 F600
G1 X85.37220286 Y30.89848458 Z-7.88542134 F600
G1 X85.68770212 Y30.68767837 Z-7.92361481 F600
G1 X85.89850816 Y30.37218949 Z-7.9618074 F600
G1 X85.97253851 Y30.00004446 Z-8 F600
G3 I-0.97248673 J-0.00001967 X85.68770212 Y30.68767837 F600
G3 I-0.68763118 J-0.68763442 X85.00004668 Y30.97250358 F600
G3 I-0.00001805 J-0.97249206 X84.31237396 Y30.6876683 F600
G3 I0.68763819 J-0.68764031 X84.0275434 Y30.00000053 F600
G3 I0.97236515 J-0.00004094 X84.31234335 Y29.31239281 F600
G3 I0.68767536 J0.68767695 X85.00003344 Y29.02754881 F600
G3 I0.00001376 J0.97246707 X85.68768328 Y29.31237585 F600
G3 I-0.68769462 J0.68769856 X85.97253851 Y30.00004446 F600
G1 X87.2425385 Y30.00003774 F600
G3 I-2.24248673 J-0.00001295 X86.58572561 Y31.5857061 F600
G3 I-1.58565467 J-1.58566214 X85.00004263 Y32.24250358 F600
G3 I-0.000014 J-2.24249206 X83.41434973 Y31.5856953 F600
G3 I1.58566243 J-1.5856673 X82.7575434 Y30.00000933 F600
G3 I2.24236515 J-0.00004974 X83.41431878 Y28.41436616 F600
G3 I1.58569993 J1.5857036 X85.00003407 Y27.75754881 F600
G3 I0.00001312 J2.24246707 X86.58570632 Y28.41434767 F600
G3 I-1.58571766 J1.58572674 X87.2425385 Y30.00003774 F600
G1 X88.5125385 Y30.00003102 F600
G3 I-3.51248673 J-0.00000624 X87.48374911 Y32.48373382 F600
G3 I-2.48367817 J-2.48368987 X85.00003858 Y33.51250358 F600
G3 I-0.00000995 J-3.51249206 X82.51632549 Y32.48372229 F600
G3 I2.48368666 J-2.48369429 X81.4875434 Y30.00001813 F600
G3 I3.51236515 J-0.00005853 X82.5162942 Y27.51633951 F600
G3 I2.48372451 J2.48373025 X85.0000347 Y26.48754881 F600
G3 I0.00001249 J3.51246707 X87.48372936 Y27.51631949 F600
G3 I-2.4837407 J2.48375492 X88.5125385 Y30.00003102 F600
G0 Z2
G0 X85.97253851 Y30.00004446
G0 Z-8
G1 X85.89850816 Y30.37218949 Z-8.0381926 F600
G1 X85.68770212 Y30.68767837 Z-8.07638519 F600
G1 X85.37220286 Y30.89848458 Z-8.11457866 F600
G1 X85.00004668 Y30.97250358 Z-8.15277214 F600
G1 X84.62788106 Y30.89848077 Z-8.19096662 F600
G1 X84.31237396 Y30.6876683 Z-8.2291611 F600
G1 X84.1015632 Y30.37216368 Z-8.26735527 F600
G1 X84.0275434 Y30.00000053 Z-8.30554945 F600
G1 X84.10155267 Y29.62786995 Z-8.34374021 F600
G1 X84.31234335 Y29.31239281 Z-8.38193096 F600
G1 X84.62785838 Y29.10157453 Z-8.42012643 F600
G1 X85.00003344 Y29.02754881 Z-8.4583219 F600
G1 X85.40460727 Y29.11569505 Z-8.5 F600
G1 X85.00003344 Y29.02754881 Z-8.5416781 F600
G1 X84.62785838 Y29.10157453 Z-8.57987357 F600
G1 X84.31234335 Y29.31239281 Z-8.61806904 F600
G1 X84.10155267 Y29.62786995 Z-8.65625979 F600
G1 X84.0275434 Y30.00000053 Z-8.69445055 F600
G1 X84.1015632 Y30.37216368 Z-8.73264473 F600
G1 X84.31237396 Y30.6876683 Z-8.7708389 F600
G1 X84.62788106 Y30.89848077 Z-8.80903338 F600
G1 X85.00004668 Y30.97250358 Z-8.84722786 F600
G1 X85.37220286 Y30.89848458 Z-8.88542134 F600
G1 X85.68770212 Y30.68767837 Z-8.92361481 F600
G1 X85.89850816 Y30.37218949 Z-8.9618074 F600
G1 X85.97253851 Y30.00004446 Z-9 F600
G3 I-0.97248673 J-0.00001967 X85.68770212 Y30.68767837 F600
G3 I-0.68763118 J-0.68763442 X85.00004668 Y30.97250358 F600
G3 I-0.00001805 J-0.97249206 X84.31237396 Y30.6876683 F600
G3 I0.68763819 J-0.68764031 X84.0275434 Y30.00000053 F600
G3 I0.97236515 J-0.00004094 X84.31234335 Y29.31239281 F600
G3 I0.68767536 J0.68767695 X85.00003344 Y29.02754881 F600
G3 I0.00001376 J0.97246707 X85.68768328 Y29.31237585 F600
G3 I-0.68769462 J0.68769856 X85.97253851 Y30.00004446 F600
G1 X87.2425385 Y30.00003774 F600
G3 I-2.24248673 J-0.00001295 X86.58572561 Y31.5857061 F600
G3 I-1.58565467 J-1.58566214 X85.00004263 Y32.24250358 F600
G3 I-0.000014 J-2.24249206 X83.41434973 Y31.5856953 F600
G3 I1.58566243 J-1.5856673 X82.7575434 Y30.00000933 F600
G3 I2.24236515 J-0.00004974 X83.41431878 Y28.41436616 F600
G3 I1.58569993 J1.5857036 X85.00003407 Y27.75754881 F600
G3 I0.00001312 J2.24246707 X86.58570632 Y28.41434767 F600
G3 I-1.58571766 J1.58572674 X87.2425385 Y30.00003774 F600
G1 X88.5125385 Y30.00003102 F600
G3 I-3.51248673 J-0.00000624 X87.48374911 Y32.48373382 F600
G3 I-2.48367817 J-2.48368987 X85.00003858 Y33.51250358 F600
G3 I-0.00000995 J-3.51249206 X82.51632549 Y32.48372229 F600
G3 I2.48368666 J-2.48369429 X81.4875434 Y30.00001813 F600
G3 I3.51236515 J-0.00005853 X82.5162942 Y27.51633951 F600
G3 I2.48372451 J2.48373025 X85.0000347 Y26.48754881 F600
G3 I0.00001249 J3.51246707 X87.48372936 Y27.51631949 F600
G3 I-2.4837407 J2.48375492 X88.5125385 Y30.00003102 F600
G0 Z2
G0 X85.97253851 Y30.00004446
G0 Z-9
G1 X85.89850816 Y30.37218949 Z-9.0381926 F600
G1 X85.68770212 Y30.68767837 Z-9.07638519 F600
G1 X85.37220286 Y30.89848458 Z-9.11457866 F600
G1 X85.00004668 Y30.97250358 Z-9.15277214 F600
G1 X84.62788106 Y30.89848077 Z-9.19096662 F600
G1 X84.31237396 Y30.6876683 Z-9.2291611 F600
G1 X84.1015632 Y30.37216368 Z-9.26735527 F600
G1 X84.0275434 Y30.00000053 Z-9.30554945 F600
G1 X84.10155267 Y29.62786995 Z-9.34374021 F600
G1 X84.31234335 Y29.31239281 Z-9.38193096 F600
G1 X84.62785838 Y29.10157453 Z-9.42012643 F600
G1 X85.00003344 Y29.02754881 Z-9.4583219 F600
G1 X85.40460727 Y29.11569505 Z-9.5 F600
G1 X85.00003344 Y29.02754881 Z-9.5416781 F600
G1 X84.62785838 Y29.10157453 Z-9.57987357 F600
G1 X84.31234335 Y29.31239281 Z-9.61806904 F600
G1 X84.10155267 Y29.62786995 Z-9.65625979 F600
G1 X84.0275434 Y30.00000053 Z-9.69445055 F600
G1 X84.1015632 Y30.37216368 Z-9.73264473 F600
G1 X84.31237396 Y30.6876683 Z-9.7708389 F600
G1 X84.62788106 Y30.89848077 Z-9.80903338 F600
G1 X85.00004668 Y30.97250358 Z-9.84722786 F600
G1 X85.37220286 Y30.89848458 Z-9.88542134 F600
G1 X85.68770212 Y30.68767837 Z-9.92361481 F600
G1 X85.89850816 Y30.37218949 Z-9.9618074 F600
G1 X85.97253851 Y30.00004446 Z-10 F600
G3 I-0.97248673 J-0.00001967 X85.68770212 Y30.68767837 F600
G3 I-0.68763118 J-0.68763442 X85.00004668 Y30.97250358 F600
G3 I-0.00001805 J-0.97249206 X84.31237396 Y30.6876683 F600
G3 I0.68763819 J-0.68764031 X84.0275434 Y30.00000053 F600
G3 I0.97236515 J-0.00004094 X84.31234335 Y29.31239281 F600
G3 I0.68767536 J0.68767695 X85.00003344 Y29.02754881 F600
G3 I0.00001376 J0.97246707 X85.68768328 Y29.31237585 F600
G3 I-0.68769462 J0.68769856 X85.97253851 Y30.00004446 F600
G1 X87.2425385 Y30.00003774 F600
G3 I-2.24248673 J-0.00001295 X86.58572561 Y31.5857061 F600
G3 I-1.58565467 J-1.58566214 X85.00004263 Y32.24250358 F600
G3 I-0.000014 J-2.24249206 X83.41434973 Y31.5856953 F600
G3 I1.58566243 J-1.5856673 X82.7575434 Y30.00000933 F600
G3 I2.24236515 J-0.00004974 X83.41431878 Y28.41436616 F600
G3 I1.58569993 J1.5857036 X85.00003407 Y27.75754881 F600
G3 I0.00001312 J2.24246707 X86.58570632 Y28.41434767 F600
G3 I-1.58571766 J1.58572674 X87.2425385 Y30.00003774 F600
G1 X88.5125385 Y30.00003102 F600
G3 I-3.51248673 J-0.00000624 X87.48374911 Y32.48373382 F600
G3 I-2.48367817 J-2.48368987 X85.00003858 Y33.51250358 F600
G3 I-0.00000995 J-3.51249206 X82.51632549 Y32.48372229 F600
G3 I2.48368666 J-2.48369429 X81.4875434 Y30.00001813 F600
G3 I3.51236515 J-0.00005853 X82.5162942 Y27.51633951 F600
G3 I2.48372451 J2.48373025 X85.0000347 Y26.48754881 F600
G3 I0.00001249 J3.51246707 X87.48372936 Y27.51631949 F600
G3 I-2.4837407 J2.48375492 X88.5125385 Y30.00003102 F600
G0 Z2
G0 X85.97253851 Y30.00004446
G0 Z-10
G1 X85.89850816 Y30.37218949 Z-10.0381926 F600
G1 X85.68770212 Y30.68767837 Z-10.07638519 F600
G1 X85.37220286 Y30.89848458 Z-10.11457866 F600
G1 X85.00004668 Y30.97250358 Z-10.15277214 F600
G1 X84.62788106 Y30.89848077 Z-10.19096662 F600
G1 X84.31237396 Y30.6876683 Z-10.2291611 F600
G1 X84.1015632 Y30.37216368 Z-10.26735527 F600
G1 X84.0275434 Y30.00000053 Z-10.30554945 F600
G1 X84.10155267 Y29.62786995 Z-10.34374021 F600
G1 X84.31234335 Y29.31239281 Z-10.38193096 F600
G1 X84.62785838 Y29.10157453 Z-10.42012643 F600
G1 X85.00003344 Y29.02754881 Z-10.4583219 F600
G1 X85.40460727 Y29.11569505 Z-10.5 F600
G1 X85.00003344 Y29.02754881 Z-10.5416781 F600
G1 X84.62785838 Y29.10157453 Z-10.57987357 F600
G1 X84.31234335 Y29.31239281 Z-10.61806904 F600
G1 X84.10155267 Y29.62786995 Z-10.65625979 F600
G1 X84.0275434 Y30.00000053 Z-10.69445055 F600
G1 X84.1015632 Y30.37216368 Z-10.73264473 F600
G1 X84.31237396 Y30.6876683 Z-10.7708389 F600
G1 X84.62788106 Y30.89848077 Z-10.80903338 F600
G1 X85.00004668 Y30.97250358 Z-10.84722786 F600
G1 X85.37220286 Y30.89848458 Z-10.88542134 F600
G1 X85.68770212 Y30.68767837 Z-10.92361481 F600
G1 X85.89850816 Y30.37218949 Z-10.9618074 F600
G1 X85.97253851 Y30.00004446 Z-11 F600
G3 I-0.97248673 J-0.00001967 X85.68770212 Y30.68767837 F600
G3 I-0.68763118 J-0.68763442 X85.00004668 Y30.97250358 F600
G3 I-0.00001805 J-0.97249206 X84.31237396 Y30.6876683 F600
G3 I0.68763819 J-0.68764031 X84.0275434 Y30.00000053 F600
G3 I0.97236515 J-0.00004094 X84.31234335 Y29.31239281 F600
G3 I0.68767536 J0.68767695 X85.00003344 Y29.02754881 F600
G3 I0.00001376 J0.97246707 X85.68768328 Y29.31237585 F600
G3 I-0.68769462 J0.68769856 X85.97253851 Y30.00004446 F600
G1 X87.2425385 Y30.00003774 F600
G3 I-2.24248673 J-0.00001295 X86.58572561 Y31.5857061 F600
G3 I-1.58565467 J-1.58566214 X85.00004263 Y32.24250358 F600
G3 I-0.000014 J-2.24249206 X83.41434973 Y31.5856953 F600
G3 I1.58566243 J-1.5856673 X82.7575434 Y30.00000933 F600
G3 I2.24236515 J-0.00004974 X83.41431878 Y28.41436616 F600
G3 I1.58569993 J1.5857036 X85.00003407 Y27.75754881 F600
G3 I0.00001312 J2.24246707 X86.58570632 Y28.41434767 F600
G3 I-1.58571766 J1.58572674 X87.2425385 Y30.00003774 F600
G1 X88.5125385 Y30.00003102 F600
G3 I-3.51248673 J-0.00000624 X87.48374911 Y32.48373382 F600
G3 I-2.48367817 J-2.48368987 X85.00003858 Y33.51250358 F600
G3 I-0.00000995 J-3.51249206 X82.51632549 Y32.48372229 F600
G3 I2.48368666 J-2.48369429 X81.4875434 Y30.00001813 F600
G3 I3.51236515 J-0.00005853 X82.5162942 Y27.51633951 F600
G3 I2.48372451 J2.48373025 X85.0000347 Y26.48754881 F600
G3 I0.00001249 J3.51246707 X87.48372936 Y27.51631949 F600
G3 I-2.4837407 J2.48375492 X88.5125385 Y30.00003102 F600
G0 Z2
G0 X85.97253851 Y30.00004446
G0 Z-11
G1 X85.89850816 Y30.37218949 Z-11.0381926 F600
G1 X85.68770212 Y30.68767837 Z-11.07638519 F600
G1 X85.37220286 Y30.89848458 Z-11.11457866 F600
G1 X85.00004668 Y30.97250358 Z-11.15277214 F600
G1 X84.62788106 Y30.89848077 Z-11.19096662 F600
G1 X84.31237396 Y30.6876683 Z-11.2291611 F600
G1 X84.1015632 Y30.37216368 Z-11.26735527 F600
G1 X84.0275434 Y30.00000053 Z-11.30554945 F600
G1 X84.10155267 Y29.62786995 Z-11.34374021 F600
G1 X84.31234335 Y29.31239281 Z-11.38193096 F600
G1 X84.62785838 Y29.10157453 Z-11.42012643 F600
G1 X85.00003344 Y29.02754881 Z-11.4583219 F600
G1 X85.40460727 Y29.11569505 Z-11.5 F600
G1 X85.00003344 Y29.02754881 Z-11.5416781 F600
G1 X84.62785838 Y29.10157453 Z-11.57987357 F600
G1 X84.31234335 Y29.31239281 Z-11.61806904 F600
G1 X84.10155267 Y29.62786995 Z-11.65625979 F600
G1 X84.0275434 Y30.00000053 Z-11.69445055 F600
G1 X84.1015632 Y30.37216368 Z-11.73264473 F600
G1 X84.31237396 Y30.6876683 Z-11.7708389 F600
G1 X84.62788106 Y30.89848077 Z-11.80903338 F600
G1 X85.00004668 Y30.97250358 Z-11.84722786 F600
G1 X85.37220286 Y30.89848458 Z-11.88542134 F600
G1 X85.68770212 Y30.68767837 Z-11.92361481 F600
G1 X85.89850816 Y30.37218949 Z-11.9618074 F600
G1 X85.97253851 Y30.00004446 Z-12 F600
G3 I-0.97248673 J-0.00001967 X85.68770212 Y30.68767837 F600
G3 I-0.68763118 J-0.68763442 X85.00004668 Y30.97250358 F600
G3 I-0.00001805 J-0.97249206 X84.31237396 Y30.6876683 F600
G3 I0.68763819 J-0.68764031 X84.0275434 Y30.00000053 F600
G3 I0.97236515 J-0.00004094 X84.31234335 Y29.31239281 F600
G3 I0.68767536 J0.68767695 X85.00003344 Y29.02754881 F600
G3 I0.00001376 J0.97246707 X85.68768328 Y29.31237585 F600
G3 I-0.68769462 J0.68769856 X85.97253851 Y30.00004446 F600
G1 X87.2425385 Y30.00003774 F600
G3 I-2.24248673 J-0.00001295 X86.58572561 Y31.5857061 F600
G3 I-1.58565467 J-1.58566214 X85.00004263 Y32.24250358 F600
G3 I-0.000014 J-2.24249206 X83.41434973 Y31.5856953 F600
G3 I1.58566243 J-1.5856673 X82.7575434 Y30.00000933 F600
G3 I2.24236515 J-0.00004974 X83.41431878 Y28.41436616 F600
G3 I1.58569993 J1.5857036 X85.00003407 Y27.75754881 F600
G3 I0.00001312 J2.24246707 X86.58570632 Y28.41434767 F600
G3 I-1.58571766 J1.58572674 X87.2425385 Y30.00003774 F600
G1 X88.5125385 Y30.00003102 F600
G3 I-3.51248673 J-0.00000624 X87.48374911 Y32.48373382 F600
G3 I-2.48367817 J-2.48368987 X85.00003858 Y33.51250358 F600
G3 I-0.00000995 J-3.51249206 X82.51632549 Y32.48372229 F600
G3 I2.48368666 J-2.48369429 X81.4875434 Y30.00001813 F600
G3 I3.51236515 J-0.00005853 X82.5162942 Y27.51633951 F600
G3 I2.48372451 J2.48373025 X85.0000347 Y26.48754881 F600
G3 I0.00001249 J3.51246707 X87.48372936 Y27.51631949 F600
G3 I-2.4837407 J2.48375492 X88.5125385 Y30.00003102 F600
G0 Z2
G0 X85.97253851 Y30.00004446
G0 Z-12
G1 X85.89850816 Y30.37218949 Z-12.0381926 F600
G1 X85.68770212 Y30.68767837 Z-12.07638519 F600
G1 X85.37220286 Y30.89848458 Z-12.11457866 F600
G1 X85.00004668 Y30.97250358 Z-12.15277214 F600
G1 X84.62788106 Y30.89848077 Z-12.19096662 F600
G1 X84.31237396 Y30.6876683 Z-12.2291611 F600
G1 X84.1015632 Y30.37216368 Z-12.26735527 F600
G1 X84.0275434 Y30.00000053 Z-12.30554945 F600
G1 X84.10155267 Y29.62786995 Z-12.34374021 F600
G1 X84.31234335 Y29.31239281 Z-12.38193096 F600
G1 X84.62785838 Y29.10157453 Z-12.42012643 F600
G1 X85.00003344 Y29.02754881 Z-12.4583219 F600
G1 X85.40460727 Y29.11569505 Z-12.5 F600
G1 X85.00003344 Y29.02754881 Z-12.5416781 F600
G1 X84.62785838 Y29.10157453 Z-12.57987357 F600
G1 X84.31234335 Y29.31239281 Z-12.61806904 F600
G1 X84.10155267 Y29.62786995 Z-12.65625979 F600
G1 X84.0275434 Y30.00000053 Z-12.69445055 F600
G1 X84.1015632 Y30.37216368 Z-12.73264473 F600
G1 X84.31237396 Y30.6876683 Z-12.7708389 F600
G1 X84.62788106 Y30.89848077 Z-12.80903338 F600
G1 X85.00004668 Y30.97250358 Z-12.84722786 F600
G1 X85.37220286 Y30.89848458 Z-12.88542134 F600
G1 X85.68770212 Y30.68767837 Z-12.92361481 F600
G1 X85.89850816 Y30.37218949 Z-12.9618074 F600
G1 X85.97253851 Y30.00004446 Z-13 F600
G3 I-0.97248673 J-0.00001967 X85.68770212 Y30.68767837 F600
G3 I-0.68763118 J-0.68763442 X85.00004668 Y30.97250358 F600
G3 I-0.00001805 J-0.97249206 X84.31237396 Y30.6876683 F600
G3 I0.68763819 J-0.68764031 X84.0275434 Y30.00000053 F600
G3 I0.97236515 J-0.00004094 X84.31234335 Y29.31239281 F600
G3 I0.68767536 J0.68767695 X85.00003344 Y29.02754881 F600
G3 I0.00001376 J0.97246707 X85.68768328 Y29.31237585 F600
G3 I-0.68769462 J0.68769856 X85.97253851 Y30.00004446 F600
G1 X87.2425385 Y30.00003774 F600
G3 I-2.24248673 J-0.00001295 X86.58572561 Y31.5857061 F600
G3 I-1.58565467 J-1.58566214 X85.00004263 Y32.24250358 F600
G3 I-0.000014 J-2.24249206 X83.41434973 Y31.5856953 F600
G3 I1.58566243 J-1.5856673 X82.7575434 Y30.00000933 F600
G3 I2.24236515 J-0.00004974 X83.41431878 Y28.41436616 F600
G3 I1.58569993 J1.5857036 X85.00003407 Y27.75754881 F600
G3 I0.00001312 J2.24246707 X86.58570632 Y28.41434767 F600
G3 I-1.58571766 J1.58572674 X87.2425385 Y30.00003774 F600
G1 X88.5125385 Y30.00003102 F600
G3 I-3.51248673 J-0.00000624 X87.48374911 Y32.48373382 F600
G3 I-2.48367817 J-2.48368987 X85.00003858 Y33.51250358 F600
G3 I-0.00000995 J-3.51249206 X82.51632549 Y32.48372229 F600
G3 I2.48368666 J-2.48369429 X81.4875434 Y30.00001813 F600
G3 I3.51236515 J-0.00005853 X82.5162942 Y27.51633951 F600
G3 I2.48372451 J2.48373025 X85.0000347 Y26.48754881 F600
G3 I0.00001249 J3.51246707 X87.48372936 Y27.51631949 F600
G3 I-2.4837407 J2.48375492 X88.5125385 Y30.00003102 F600
G0 Z2
G0 X85.97253851 Y30.00004446
G0 Z-13
G1 X85.89850816 Y30.37218949 Z-13.0381926 F600
G1 X85.68770212 Y30.68767837 Z-13.07638519 F600
G1 X85.37220286 Y30.89848458 Z-13.11457866 F600
G1 X85.00004668 Y30.97250358 Z-13.15277214 F600
G1 X84.62788106 Y30.89848077 Z-13.19096662 F600
G1 X84.31237396 Y30.6876683 Z-13.2291611 F600
G1 X84.1015632 Y30.37216368 Z-13.26735527 F600
G1 X84.0275434 Y30.00000053 Z-13.30554945 F600
G1 X84.10155267 Y29.62786995 Z-13.34374021 F600
G1 X84.31234335 Y29.31239281 Z-13.38193096 F600
G1 X84.62785838 Y29.10157453 Z-13.42012643 F600
G1 X85.00003344 Y29.02754881 Z-13.4583219 F600
G1 X85.40460727 Y29.11569505 Z-13.5 F600
G1 X85.00003344 Y29.02754881 Z-13.5416781 F600
G1 X84.62785838 Y29.10157453 Z-13.57987357 F600
G1 X84.31234335 Y29.31239281 Z-13.61806904 F600
G1 X84.10155267 Y29.62786995 Z-13.65625979 F600
G1 X84.0275434 Y30.00000053 Z-13.69445055 F600
G1 X84.1015632 Y30.37216368 Z-13.73264473 F600
G1 X84.31237396 Y30.6876683 Z-13.7708389 F600
G1 X84.62788106 Y30.89848077 Z-13.80903338 F600
G1 X85.00004668 Y30.97250358 Z-13.84722786 F600
G1 X85.37220286 Y30.89848458 Z-13.88542134 F600
G1 X85.68770212 Y30.68767837 Z-13.92361481 F600
G1 X85.89850816 Y30.37218949 Z-13.9618074 F600
G1 X85.97253851 Y30.00004446 Z-14 F600
G3 I-0.97248673 J-0.00001967 X85.68770212 Y30.68767837 F600
G3 I-0.68763118 J-0.68763442 X85.00004668 Y30.97250358 F600
G3 I-0.00001805 J-0.97249206 X84.31237396 Y30.6876683 F600
G3 I0.68763819 J-0.68764031 X84.0275434 Y30.00000053 F600
G3 I0.97236515 J-0.00004094 X84.31234335 Y29.31239281 F600
G3 I0.68767536 J0.68767695 X85.00003344 Y29.02754881 F600
G3 I0.00001376 J0.97246707 X85.68768328 Y29.31237585 F600
G3 I-0.68769462 J0.68769856 X85.97253851 Y30.00004446 F600
G1 X87.2425385 Y30.00003774 F600
G3 I-2.24248673 J-0.00001295 X86.58572561 Y31.5857061 F600
G3 I-1.58565467 J-1.58566214 X85.00004263 Y32.24250358 F600
G3 I-0.000014 J-2.24249206 X83.41434973 Y31.5856953 F600
G3 I1.58566243 J-1.5856673 X82.7575434 Y30.00000933 F600
G3 I2.24236515 J-0.00004974 X83.41431878 Y28.41436616 F600
G3 I1.58569993 J1.5857036 X85.00003407 Y27.75754881 F600
G3 I0.00001312 J2.24246707 X86.58570632 Y28.41434767 F600
G3 I-1.58571766 J1.58572674 X87.2425385 Y30.00003774 F600
G1 X88.5125385 Y30.00003102 F600
G3 I-3.51248673 J-0.00000624 X87.48374911 Y32.48373382 F600
G3 I-2.48367817 J-2.48368987 X85.00003858 Y33.51250358 F600
G3 I-0.00000995 J-3.51249206 X82.51632549 Y32.48372229 F600
G3 I2.48368666 J-2.48369429 X81.4875434 Y30.00001813 F600
G3 I3.51236515 J-0.00005853 X82.5162942 Y27.51633951 F600
G3 I2.48372451 J2.48373025 X85.0000347 Y26.48754881 F600
G3 I0.00001249 J3.51246707 X87.48372936 Y27.51631949 F600
G3 I-2.4837407 J2.48375492 X88.5125385 Y30.00003102 F600
G0 Z2
G0 X85.97253851 Y30.00004446
G0 Z-14
G1 X85.89850816 Y30.37218949 Z-14.0381926 F600
G1 X85.68770212 Y30.68767837 Z-14.07638519 F600
G1 X85.37220286 Y30.89848458 Z-14.11457866 F600
G1 X85.00004668 Y30.97250358 Z-14.15277214 F600
G1 X84.62788106 Y30.89848077 Z-14.19096662 F600
G1 X84.31237396 Y30.6876683 Z-14.2291611 F600
G1 X84.1015632 Y30.37216368 Z-14.26735527 F600
G1 X84.0275434 Y30.00000053 Z-14.30554945 F600
G1 X84.10155267 Y29.62786995 Z-14.34374021 F600
G1 X84.31234335 Y29.31239281 Z-14.38193096 F600
G1 X84.62785838 Y29.10157453 Z-14.42012643 F600
G1 X85.00003344 Y29.02754881 Z-14.4583219 F600
G1 X85.40460727 Y29.11569505 Z-14.5 F600
G1 X85.00003344 Y29.02754881 Z-14.5416781 F600
G1 X84.62785838 Y29.10157453 Z-14.57987357 F600
G1 X84.31234335 Y29.31239281 Z-14.61806904 F600
G1 X84.10155267 Y29.62786995 Z-14.65625979 F600
G1 X84.0275434 Y30.00000053 Z-14.69445055 F600
G1 X84.1015632 Y30.37216368 Z-14.73264473 F600
G1 X84.31237396 Y30.6876683 Z-14.7708389 F600
G1 X84.62788106 Y30.89848077 Z-14.80903338 F600
G1 X85.00004668 Y30.97250358 Z-14.84722786 F600
G1 X85.37220286 Y30.89848458 Z-14.88542134 F600
G1 X85.68770212 Y30.68767837 Z-14.92361481 F600
G1 X85.89850816 Y30.37218949 Z-14.9618074 F600
G1 X85.97253851 Y30.00004446 Z-15 F600
G3 I-0.97248673 J-0.00001967 X85.68770212 Y30.68767837 F600
G3 I-0.68763118 J-0.68763442 X85.00004668 Y30.97250358 F600
G3 I-0.00001805 J-0.97249206 X84.31237396 Y30.6876683 F600
G3 I0.68763819 J-0.68764031 X84.0275434 Y30.00000053 F600
G3 I0.97236515 J-0.00004094 X84.31234335 Y29.31239281 F600
G3 I0.68767536 J0.68767695 X85.00003344 Y29.02754881 F600
G3 I0.00001376 J0.97246707 X85.68768328 Y29.31237585 F600
G3 I-0.68769462 J0.68769856 X85.97253851 Y30.00004446 F600
G1 X87.2425385 Y30.00003774 F600
G3 I-2.24248673 J-0.00001295 X86.58572561 Y31.5857061 F600
G3 I-1.58565467 J-1.58566214 X85.00004263 Y32.24250358 F600
G3 I-0.000014 J-2.24249206 X83.41434973 Y31.5856953 F600
G3 I1.58566243 J-1.5856673 X82.7575434 Y30.00000933 F600
G3 I2.24236515 J-0.00004974 X83.41431878 Y28.41436616 F600
G3 I1.58569993 J1.5857036 X85.00003407 Y27.75754881 F600
G3 I0.00001312 J2.24246707 X86.58570632 Y28.41434767 F600
G3 I-1.58571766 J1.58572674 X87.2425385 Y30.00003774 F600
G1 X88.5125385 Y30.00003102 F600
G3 I-3.51248673 J-0.00000624 X87.48374911 Y32.48373382 F600
G3 I-2.48367817 J-2.48368987 X85.00003858 Y33.51250358 F600
G3 I-0.00000995 J-3.51249206 X82.51632549 Y32.48372229 F600
G3 I2.48368666 J-2.48369429 X81.4875434 Y30.00001813 F600
G3 I3.51236515 J-0.00005853 X82.5162942 Y27.51633951 F600
G3 I2.48372451 J2.48373025 X85.0000347 Y26.48754881 F600
G3 I0.00001249 J3.51246707 X87.48372936 Y27.51631949 F600
G3 I-2.4837407 J2.48375492 X88.5125385 Y30.00003102 F600
G0 Z2
G0 X85.97253851 Y30.00004446
G0 Z-15
G1 X85.89850816 Y30.37218949 Z-15.0381926 F600
G1 X85.68770212 Y30.68767837 Z-15.07638519 F600
G1 X85.37220286 Y30.89848458 Z-15.11457866 F600
G1 X85.00004668 Y30.97250358 Z-15.15277214 F600
G1 X84.62788106 Y30.89848077 Z-15.19096662 F600
G1 X84.31237396 Y30.6876683 Z-15.2291611 F600
G1 X84.1015632 Y30.37216368 Z-15.26735527 F600
G1 X84.0275434 Y30.00000053 Z-15.30554945 F600
G1 X84.10155267 Y29.62786995 Z-15.34374021 F600
G1 X84.31234335 Y29.31239281 Z-15.38193096 F600
G1 X84.62785838 Y29.10157453 Z-15.42012643 F600
G1 X85.00003344 Y29.02754881 Z-15.4583219 F600
G1 X85.40460727 Y29.11569505 Z-15.5 F600
G1 X85.00003344 Y29.02754881 Z-15.5416781 F600
G1 X84.62785838 Y29.10157453 Z-15.57987357 F600
G1 X84.31234335 Y29.31239281 Z-15.61806904 F600
G1 X84.10155267 Y29.62786995 Z-15.65625979 F600
G1 X84.0275434 Y30.00000053 Z-15.69445055 F600
G1 X84.1015632 Y30.37216368 Z-15.73264473 F600
G1 X84.31237396 Y30.6876683 Z-15.7708389 F600
G1 X84.62788106 Y30.89848077 Z-15.80903338 F600
G1 X85.00004668 Y30.97250358 Z-15.84722786 F600
G1 X85.37220286 Y30.89848458 Z-15.88542134 F600
G1 X85.68770212 Y30.68767837 Z-15.92361481 F600
G1 X85.89850816 Y30.37218949 Z-15.9618074 F600
G1 X85.97253851 Y30.00004446 Z-16 F600
G3 I-0.97248673 J-0.00001967 X85.68770212 Y30.68767837 F600
G3 I-0.68763118 J-0.68763442 X85.00004668 Y30.97250358 F600
G3 I-0.00001805 J-0.97249206 X84.31237396 Y30.6876683 F600
G3 I0.68763819 J-0.68764031 X84.0275434 Y30.00000053 F600
G3 I0.97236515 J-0.00004094 X84.31234335 Y29.31239281 F600
G3 I0.68767536 J0.68767695 X85.00003344 Y29.02754881 F600
G3 I0.00001376 J0.97246707 X85.68768328 Y29.31237585 F600
G3 I-0.68769462 J0.68769856 X85.97253851 Y30.00004446 F600
G1 X87.2425385 Y30.00003774 F600
G3 I-2.24248673 J-0.00001295 X86.58572561 Y31.5857061 F600
G3 I-1.58565467 J-1.58566214 X85.00004263 Y32.24250358 F600
G3 I-0.000014 J-2.24249206 X83.41434973 Y31.5856953 F600
G3 I1.58566243 J-1.5856673 X82.7575434 Y30.00000933 F600
G3 I2.24236515 J-0.00004974 X83.41431878 Y28.41436616 F600
G3 I1.58569993 J1.5857036 X85.00003407 Y27.75754881 F600
G3 I0.00001312 J2.24246707 X86.58570632 Y28.41434767 F600
G3 I-1.58571766 J1.58572674 X87.2425385 Y30.00003774 F600
G1 X88.5125385 Y30.00003102 F600
G3 I-3.51248673 J-0.00000624 X87.48374911 Y32.48373382 F600
G3 I-2.48367817 J-2.48368987 X85.00003858 Y33.51250358 F600
G3 I-0.00000995 J-3.51249206 X82.51632549 Y32.48372229 F600
G3 I2.48368666 J-2.48369429 X81.4875434 Y30.00001813 F600
G3 I3.51236515 J-0.00005853 X82.5162942 Y27.51633951 F600
G3 I2.48372451 J2.48373025 X85.0000347 Y26.48754881 F600
G3 I0.00001249 J3.51246707 X87.48372936 Y27.51631949 F600
G3 I-2.4837407 J2.48375492 X88.5125385 Y30.00003102 F600
G0 Z2
G0 X85.97253851 Y30.00004446
G0 Z-16
G1 X85.89850816 Y30.37218949 Z-16.0381926 F600
G1 X85.68770212 Y30.68767837 Z-16.07638519 F600
G1 X85.37220286 Y30.89848458 Z-16.11457866 F600
G1 X85.00004668 Y30.97250358 Z-16.15277214 F600
G1 X84.62788106 Y30.89848077 Z-16.19096662 F600
G1 X84.31237396 Y30.6876683 Z-16.2291611 F600
G1 X84.1015632 Y30.37216368 Z-16.26735527 F600
G1 X84.0275434 Y30.00000053 Z-16.30554945 F600
G1 X84.10155267 Y29.62786995 Z-16.34374021 F600
G1 X84.31234335 Y29.31239281 Z-16.38193096 F600
G1 X84.62785838 Y29.10157453 Z-16.42012643 F600
G1 X85.00003344 Y29.02754881 Z-16.4583219 F600
G1 X85.40460727 Y29.11569505 Z-16.5 F600
G1 X85.00003344 Y29.02754881 Z-16.5416781 F600
G1 X84.62785838 Y29.10157453 Z-16.57987357 F600
G1 X84.31234335 Y29.31239281 Z-16.61806904 F600
G1 X84.10155267 Y29.62786995 Z-16.65625979 F600
G1 X84.0275434 Y30.00000053 Z-16.69445055 F600
G1 X84.1015632 Y30.37216368 Z-16.73264473 F600
G1 X84.31237396 Y30.6876683 Z-16.7708389 F600
G1 X84.62788106 Y30.89848077 Z-16.80903338 F600
G1 X85.00004668 Y30.97250358 Z-16.84722786 F600
G1 X85.37220286 Y30.89848458 Z-16.88542134 F600
G1 X85.68770212 Y30.68767837 Z-16.92361481 F600
G1 X85.89850816 Y30.37218949 Z-16.9618074 F600
G1 X85.97253851 Y30.00004446 Z-17 F600
G3 I-0.97248673 J-0.00001967 X85.68770212 Y30.68767837 F600
G3 I-0.68763118 J-0.68763442 X85.00004668 Y30.97250358 F600
G3 I-0.00001805 J-0.97249206 X84.31237396 Y30.6876683 F600
G3 I0.68763819 J-0.68764031 X84.0275434 Y30.00000053 F600
G3 I0.97236515 J-0.00004094 X84.31234335 Y29.31239281 F600
G3 I0.68767536 J0.68767695 X85.00003344 Y29.02754881 F600
G3 I0.00001376 J0.97246707 X85.68768328 Y29.31237585 F600
G3 I-0.68769462 J0.68769856 X85.97253851 Y30.00004446 F600
G1 X87.2425385 Y30.00003774 F600
G3 I-2.24248673 J-0.00001295 X86.58572561 Y31.5857061 F600
G3 I-1.58565467 J-1.58566214 X85.00004263 Y32.24250358 F600
G3 I-0.000014 J-2.24249206 X83.41434973 Y31.5856953 F600
G3 I1.58566243 J-1.5856673 X82.7575434 Y30.00000933 F600
G3 I2.24236515 J-0.00004974 X83.41431878 Y28.41436616 F600
G3 I1.58569993 J1.5857036 X85.00003407 Y27.75754881 F600
G3 I0.00001312 J2.24246707 X86.58570632 Y28.41434767 F600
G3 I-1.58571766 J1.58572674 X87.2425385 Y30.00003774 F600
G1 X88.5125385 Y30.00003102 F600
G3 I-3.51248673 J-0.00000624 X87.48374911 Y32.48373382 F600
G3 I-2.48367817 J-2.48368987 X85.00003858 Y33.51250358 F600
G3 I-0.00000995 J-3.51249206 X82.51632549 Y32.48372229 F600
G3 I2.48368666 J-2.48369429 X81.4875434 Y30.00001813 F600
G3 I3.51236515 J-0.00005853 X82.5162942 Y27.51633951 F600
G3 I2.48372451 J2.48373025 X85.0000347 Y26.48754881 F600
G3 I0.00001249 J3.51246707 X87.48372936 Y27.51631949 F600
G3 I-2.4837407 J2.48375492 X88.5125385 Y30.00003102 F600
G0 Z2
G0 X85.97253851 Y30.00004446
G0 Z-17
G1 X85.89850816 Y30.37218949 Z-17.0381926 F600
G1 X85.68770212 Y30.68767837 Z-17.07638519 F600
G1 X85.37220286 Y30.89848458 Z-17.11457866 F600
G1 X85.00004668 Y30.97250358 Z-17.15277214 F600
G1 X84.62788106 Y30.89848077 Z-17.19096662 F600
G1 X84.31237396 Y30.6876683 Z-17.2291611 F600
G1 X84.1015632 Y30.37216368 Z-17.26735527 F600
G1 X84.0275434 Y30.00000053 Z-17.30554945 F600
G1 X84.10155267 Y29.62786995 Z-17.34374021 F600
G1 X84.31234335 Y29.31239281 Z-17.38193096 F600
G1 X84.62785838 Y29.10157453 Z-17.42012643 F600
G1 X85.00003344 Y29.02754881 Z-17.4583219 F600
G1 X85.40460727 Y29.11569505 Z-17.5 F600
G1 X85.00003344 Y29.02754881 Z-17.5416781 F600
G1 X84.62785838 Y29.10157453 Z-17.57987357 F600
G1 X84.31234335 Y29.31239281 Z-17.61806904 F600
G1 X84.10155267 Y29.62786995 Z-17.65625979 F600
G1 X84.0275434 Y30.00000053 Z-17.69445055 F600
G1 X84.1015632 Y30.37216368 Z-17.73264473 F600
G1 X84.31237396 Y30.6876683 Z-17.7708389 F600
G1 X84.62788106 Y30.89848077 Z-17.80903338 F600
G1 X85.00004668 Y30.97250358 Z-17.84722786 F600
G1 X85.37220286 Y30.89848458 Z-17.88542134 F600
G1 X85.68770212 Y30.68767837 Z-17.92361481 F600
G1 X85.89850816 Y30.37218949 Z-17.9618074 F600
G1 X85.97253851 Y30.00004446 Z-18 F600
G3 I-0.97248673 J-0.00001967 X85.68770212 Y30.68767837 F600
G3 I-0.68763118 J-0.68763442 X85.00004668 Y30.97250358 F600
G3 I-0.00001805 J-0.97249206 X84.31237396 Y30.6876683 F600
G3 I0.68763819 J-0.68764031 X84.0275434 Y30.00000053 F600
G3 I0.97236515 J-0.00004094 X84.31234335 Y29.31239281 F600
G3 I0.68767536 J0.68767695 X85.00003344 Y29.02754881 F600
G3 I0.00001376 J0.97246707 X85.68768328 Y29.31237585 F600
G3 I-0.68769462 J0.68769856 X85.97253851 Y30.00004446 F600
G1 X87.2425385 Y30.00003774 F600
G3 I-2.24248673 J-0.00001295 X86.58572561 Y31.5857061 F600
G3 I-1.58565467 J-1.58566214 X85.00004263 Y32.24250358 F600
G3 I-0.000014 J-2.24249206 X83.41434973 Y31.5856953 F600
G3 I1.58566243 J-1.5856673 X82.7575434 Y30.00000933 F600
G3 I2.24236515 J-0.00004974 X83.41431878 Y28.41436616 F600
G3 I1.58569993 J1.5857036 X85.00003407 Y27.75754881 F600
G3 I0.00001312 J2.24246707 X86.58570632 Y28.41434767 F600
G3 I-1.58571766 J1.58572674 X87.2425385 Y30.00003774 F600
G1 X88.5125385 Y30.00003102 F600
G3 I-3.51248673 J-0.00000624 X87.48374911 Y32.48373382 F600
G3 I-2.48367817 J-2.48368987 X85.00003858 Y33.51250358 F600
G3 I-0.00000995 J-3.51249206 X82.51632549 Y32.48372229 F600
G3 I2.48368666 J-2.48369429 X81.4875434 Y30.00001813 F600
G3 I3.51236515 J-0.00005853 X82.5162942 Y27.51633951 F600
G3 I2.48372451 J2.48373025 X85.0000347 Y26.48754881 F600
G3 I0.00001249 J3.51246707 X87.48372936 Y27.51631949 F600
G3 I-2.4837407 J2.48375492 X88.5125385 Y30.00003102 F600
G0 Z2
G0 X85.97253851 Y30.00004446
G0 Z-18
G1 X85.89850816 Y30.37218949 Z-18.03817419 F600
G1 X85.68770212 Y30.68767837 Z-18.07634839 F600
G1 X85.37220286 Y30.89848458 Z-18.11452346 F600
G1 X85.00004668 Y30.97250358 Z-18.15269853 F600
G1 X84.62788106 Y30.89848077 Z-18.19087461 F600
G1 X84.31237396 Y30.6876683 Z-18.22905069 F600
G1 X84.18174411 Y30.52551148 Z-18.25 F600
G1 X84.31237396 Y30.6876683 Z-18.27094931 F600
G1 X84.62788106 Y30.89848077 Z-18.30912539 F600
G1 X85.00004668 Y30.97250358 Z-18.34730147 F600
G1 X85.37220286 Y30.89848458 Z-18.38547654 F600
G1 X85.68770212 Y30.68767837 Z-18.42365161 F600
G1 X85.89850816 Y30.37218949 Z-18.46182581 F600
G1 X85.97253851 Y30.00004446 Z-18.5 F600
G3 I-0.97248673 J-0.00001967 X85.68770212 Y30.68767837 F600
G3 I-0.68763118 J-0.68763442 X85.00004668 Y30.97250358 F600
G3 I-0.00001805 J-0.97249206 X84.31237396 Y30.6876683 F600
G3 I0.68763819 J-0.68764031 X84.0275434 Y30.00000053 F600
G3 I0.97236515 J-0.00004094 X84.31234335 Y29.31239281 F600
G3 I0.68767536 J0.68767695 X85.00003344 Y29.02754881 F600
G3 I0.00001376 J0.97246707 X85.68768328 Y29.31237585 F600
G3 I-0.68769462 J0.68769856 X85.97253851 Y30.00004446 F600
G1 X87.2425385 Y30.00003774 F600
G3 I-2.24248673 J-0.00001295 X86.58572561 Y31.5857061 F600
G3 I-1.58565467 J-1.58566214 X85.00004263 Y32.24250358 F600
G3 I-0.000014 J-2.24249206 X83.41434973 Y31.5856953 F600
G3 I1.58566243 J-1.5856673 X82.7575434 Y30.00000933 F600
G3 I2.24236515 J-0.00004974 X83.41431878 Y28.41436616 F600
G3 I1.58569993 J1.5857036 X85.00003407 Y27.75754881 F600
G3 I0.00001312 J2.24246707 X86.58570632 Y28.41434767 F600
G3 I-1.58571766 J1.58572674 X87.2425385 Y30.00003774 F600
G1 X88.5125385 Y30.00003102 F600
G3 I-3.51248673 J-0.00000624 X87.48374911 Y32.48373382 F600
G3 I-2.48367817 J-2.48368987 X85.00003858 Y33.51250358 F600
G3 I-0.00000995 J-3.51249206 X82.51632549 Y32.48372229 F600
G3 I2.48368666 J-2.48369429 X81.4875434 Y30.00001813 F600
G3 I3.51236515 J-0.00005853 X82.5162942 Y27.51633951 F600
G3 I2.48372451 J2.48373025 X85.0000347 Y26.48754881 F600
G3 I0.00001249 J3.51246707 X87.48372936 Y27.51631949 F600
G3 I-2.4837407 J2.48375492 X88.5125385 Y30.00003102 F600
G0 Z2

; BEGIN TOOLPATH 'profile_outside'
;   Files: support.svg
;   Operation: 
;    name  =  Profile outside
;    type  =  PROFILE_OUTSIDE
;    toolDiameter  =  3.175
;    targetDepth  =  18.5
;    safetyHeight  =  2
;    stepDown  =  1
;    feedRate  =  800
;    plungeRate  =  100
;    spindleSpeed  =  10000
;    roughingClearance  =  0
;    tabLength  =  5
;    tabHeight  =  1
;    direction  =  Clockwise
;    depthFirst  =  false
;    attack  =  Ramp
;    addDogBones  =  false
G0 X17.67568826 Y51.5875138
G0 Z0
G1 X22.67568826 Y51.58751509 Z-0.5 F800
G1 X17.67568826 Y51.5875138 Z-1 F800
G1 X40.79684472 Y51.58751979 F800
G1 X48.97184472 Y51.58752191 F800
G1 X115.19684508 Y51.58753909 F800
G1 X123.37184508 Y51.58754121 F800
G1 X152.32436811 Y51.58754871 F800
G2 I-0.00002668 J-9.26321335 X155.86923386 Y50.88242272 F800
G2 I-3.54482431 J-8.55792289 X158.87440094 Y48.87441864 F800
G2 I-6.55049191 J-6.55031883 X160.88242866 Y45.86914743 F800
G2 I-8.55764698 J-3.54468616 X161.58750924 Y42.3243614 F800
G1 X161.58751928 Y35.18867406 F800
G1 X161.58753078 Y27.01367406 F800
G1 X161.58754392 Y17.67571709 F800
G2 I-9.26319277 J0.000021 X160.88241126 Y14.13083365 F800
G2 I-8.55814408 J3.54493921 X158.87437999 Y11.12562429 F800
G2 I-6.55009091 J6.55009417 X155.86918913 Y9.11761656 F800
G2 I-3.54478915 J8.55783419 X152.32436687 Y8.41251082 F800
G1 X125.57184323 Y8.41251546 F800
G1 X117.39684323 Y8.41251688 F800
G1 X47.17184351 Y8.41252907 F800
G1 X38.99684351 Y8.41253049 F800
G1 X17.67569983 Y8.41253419 F800
G2 I0.00002991 J9.26348123 X14.13077805 Y9.11766265 F800
G2 I3.54466968 J8.55767192 X11.12564394 Y11.12563976 F800
G2 I6.55009861 J6.55004816 X9.11765454 Y14.1308251 F800
G2 I8.55819718 J3.54490804 X8.41253093 Y17.67570038 F800
G1 X8.41252489 Y25.81371469 F800
G1 X8.41251882 Y33.98871469 F800
G1 X8.41251263 Y42.32434 F800
G2 I9.26354035 J-0.00009898 X9.11764161 Y45.86920572 F800
G2 I8.55833234 J-3.54493197 X11.12562057 Y48.8744238 F800
G2 I6.5501892 J-6.55037433 X14.13087086 Y50.88242493 F800
G2 I3.54477307 J-8.55797509 X17.67568826 Y51.5875138 F800
G1 X22.67568826 Y51.58751509 Z-1.5 F800
G1 X17.67568826 Y51.5875138 Z-2 F800
G1 X40.79684472 Y51.58751979 F800
G1 X48.97184472 Y51.58752191 F800
G1 X115.19684508 Y51.58753909 F800
G1 X123.37184508 Y51.58754121 F800
G1 X152.32436811 Y51.58754871 F800
G2 I-0.00002668 J-9.26321335 X155.86923386 Y50.88242272 F800
G2 I-3.54482431 J-8.55792289 X158.87440094 Y48.87441864 F800
G2 I-6.55049191 J-6.55031883 X160.88242866 Y45.86914743 F800
G2 I-8.55764698 J-3.54468616 X161.58750924 Y42.3243614 F800
G1 X161.58751928 Y35.18867406 F800
G1 X161.58753078 Y27.01367406 F800
G1 X161.58754392 Y17.67571709 F800
G2 I-9.26319277 J0.000021 X160.88241126 Y14.13083365 F800
G2 I-8.55814408 J3.54493921 X158.87437999 Y11.12562429 F800
G2 I-6.55009091 J6.55009417 X155.86918913 Y9.11761656 F800
G2 I-3.54478915 J8.55783419 X152.32436687 Y8.41251082 F800
G1 X125.57184323 Y8.41251546 F800
G1 X117.39684323 Y8.41251688 F800
G1 X47.17184351 Y8.41252907 F800
G1 X38.99684351 Y8.41253049 F800
G1 X17.67569983 Y8.41253419 F800
G2 I0.00002991 J9.26348123 X14.13077805 Y9.11766265 F800
G2 I3.54466968 J8.55767192 X11.12564394 Y11.12563976 F800
G2 I6.55009861 J6.55004816 X9.11765454 Y14.1308251 F800
G2 I8.55819718 J3.54490804 X8.41253093 Y17.67570038 F800
G1 X8.41252489 Y25.81371469 F800
G1 X8.41251882 Y33.98871469 F800
G1 X8.41251263 Y42.32434 F800
G2 I9.26354035 J-0.00009898 X9.11764161 Y45.86920572 F800
G2 I8.55833234 J-3.54493197 X11.12562057 Y48.8744238 F800
G2 I6.5501892 J-6.55037433 X14.13087086 Y50.88242493 F800
G2 I3.54477307 J-8.55797509 X17.67568826 Y51.5875138 F800
G1 X22.67568826 Y51.58751509 Z-2.5 F800
G1 X17.67568826 Y51.5875138 Z-3 F800
G1 X40.79684472 Y51.58751979 F800
G1 X48.97184472 Y51.58752191 F800
G1 X115.19684508 Y51.58753909 F800
G1 X123.37184508 Y51.58754121 F800
G1 X152.32436811 Y51.58754871 F800
G2 I-0.00002668 J-9.26321335 X155.86923386 Y50.88242272 F800
G2 I-3.54482431 J-8.55792289 X158.87440094 Y48.87441864 F800
G2 I-6.55049191 J-6.55031883 X160.88242866 Y45.86914743 F800
G2 I-8.55764698 J-3.54468616 X161.58750924 Y42.3243614 F800
G1 X161.58751928 Y35.18867406 F800
G1 X161.58753078 Y27.01367406 F800
G1 X161.58754392 Y17.67571709 F800
G2 I-9.26319277 J0.000021 X160.88241126 Y14.13083365 F800
G2 I-8.55814408 J3.54493921 X158.87437999 Y11.12562429 F800
G2 I-6.55009091 J6.55009417 X155.86918913 Y9.11761656 F800
G2 I-3.54478915 J8.55783419 X152.32436687 Y8.41251082 F800
G1 X125.57184323 Y8.41251546 F800
G1 X117.39684323 Y8.41251688 F800
G1 X47.17184351 Y8.41252907 F800
G1 X38.99684351 Y8.41253049 F800
G1 X17.67569983 Y8.41253419 F800
G2 I0.00002991 J9.26348123 X14.13077805 Y9.11766265 F800
G2 I3.54466968 J8.55767192 X11.12564394 Y11.12563976 F800
G2 I6.55009861 J6.55004816 X9.11765454 Y14.1308251 F800
G2 I8.55819718 J3.54490804 X8.41253093 Y17.67570038 F800
G1 X8.41252489 Y25.81371469 F800
G1 X8.41251882 Y33.98871469 F800
G1 X8.41251263 Y42.32434 F800
G2 I9.26354035 J-0.00009898 X9.11764161 Y45.86920572 F800
G2 I8.55833234 J-3.54493197 X11.12562057 Y48.8744238 F800
G2 I6.5501892 J-6.55037433 X14.13087086 Y50.88242493 F800
G2 I3.54477307 J-8.55797509 X17.67568826 Y51.5875138 F800
G1 X22.67568826 Y51.58751509 Z-3.5 F800
G1 X17.67568826 Y51.5875138 Z-4 F800
G1 X40.79684472 Y51.58751979 F800
G1 X48.97184472 Y51.58752191 F800
G1 X115.19684508 Y51.58753909 F800
G1 X123.37184508 Y51.58754121 F800
G1 X152.32436811 Y51.58754871 F800
G2 I-0.00002668 J-9.26321335 X155.86923386 Y50.88242272 F800
G2 I-3.54482431 J-8.55792289 X158.87440094 Y48.87441864 F800
G2 I-6.55049191 J-6.55031883 X160.88242866 Y45.86914743 F800
G2 I-8.55764698 J-3.54468616 X161.58750924 Y42.3243614 F800
G1 X161.58751928 Y35.18867406 F800
G1 X161.58753078 Y27.01367406 F800
G1 X161.58754392 Y17.67571709 F800
G2 I-9.26319277 J0.000021 X160.88241126 Y14.13083365 F800
G2 I-8.55814408 J3.54493921 X158.87437999 Y11.12562429 F800
G2 I-6.55009091 J6.55009417 X155.86918913 Y9.11761656 F800
G2 I-3.54478915 J8.55783419 X152.32436687 Y8.41251082 F800
G1 X125.57184323 Y8.41251546 F800
G1 X117.39684323 Y8.41251688 F800
G1 X47.17184351 Y8.41252907 F800
G1 X38.99684351 Y8.41253049 F800
G1 X17.67569983 Y8.41253419 F800
G2 I0.00002991 J9.26348123 X14.13077805 Y9.11766265 F800
G2 I3.54466968 J8.55767192 X11.12564394 Y11.12563976 F800
G2 I6.55009861 J6.55004816 X9.11765454 Y14.1308251 F800
G2 I8.55819718 J3.54490804 X8.41253093 Y17.67570038 F800
G1 X8.41252489 Y25.81371469 F800
G1 X8.41251882 Y33.98871469 F800
G1 X8.41251263 Y42.32434 F800
G2 I9.26354035 J-0.00009898 X9.11764161 Y45.86920572 F800
G2 I8.55833234 J-3.54493197 X11.12562057 Y48.8744238 F800
G2 I6.5501892 J-6.55037433 X14.13087086 Y50.88242493 F800
G2 I3.54477307 J-8.55797509 X17.67568826 Y51.5875138 F800
G1 X22.67568826 Y51.58751509 Z-4.5 F800
G1 X17.67568826 Y51.5875138 Z-5 F800
G1 X40.79684472 Y51.58751979 F800
G1 X48.97184472 Y51.58752191 F800
G1 X115.19684508 Y51.58753909 F800
G1 X123.37184508 Y51.58754121 F800
G1 X152.32436811 Y51.58754871 F800
G2 I-0.00002668 J-9.26321335 X155.86923386 Y50.88242272 F800
G2 I-3.54482431 J-8.55792289 X158.87440094 Y48.87441864 F800
G2 I-6.55049191 J-6.55031883 X160.88242866 Y45.86914743 F800
G2 I-8.55764698 J-3.54468616 X161.58750924 Y42.3243614 F800
G1 X161.58751928 Y35.18867406 F800
G1 X161.58753078 Y27.01367406 F800
G1 X161.58754392 Y17.67571709 F800
G2 I-9.26319277 J0.000021 X160.88241126 Y14.13083365 F800
G2 I-8.55814408 J3.54493921 X158.87437999 Y11.12562429 F800
G2 I-6.55009091 J6.55009417 X155.86918913 Y9.11761656 F800
G2 I-3.54478915 J8.55783419 X152.32436687 Y8.41251082 F800
G1 X125.57184323 Y8.41251546 F800
G1 X117.39684323 Y8.41251688 F800
G1 X47.17184351 Y8.41252907 F800
G1 X38.99684351 Y8.41253049 F800
G1 X17.67569983 Y8.41253419 F800
G2 I0.00002991 J9.26348123 X14.13077805 Y9.11766265 F800
G2 I3.54466968 J8.55767192 X11.12564394 Y11.12563976 F800
G2 I6.55009861 J6.55004816 X9.11765454 Y14.1308251 F800
G2 I8.55819718 J3.54490804 X8.41253093 Y17.67570038 F800
G1 X8.41252489 Y25.81371469 F800
G1 X8.41251882 Y33.98871469 F800
G1 X8.41251263 Y42.32434 F800
G2 I9.26354035 J-0.00009898 X9.11764161 Y45.86920572 F800
G2 I8.55833234 J-3.54493197 X11.12562057 Y48.8744238 F800
G2 I6.5501892 J-6.55037433 X14.13087086 Y50.88242493 F800
G2 I3.54477307 J-8.55797509 X17.67568826 Y51.5875138 F800
G1 X22.67568826 Y51.58751509 Z-5.5 F800
G1 X17.67568826 Y51.5875138 Z-6 F800
G1 X40.79684472 Y51.58751979 F800
G1 X48.97184472 Y51.58752191 F800
G1 X115.19684508 Y51.58753909 F800
G1 X123.37184508 Y51.58754121 F800
G1 X152.32436811 Y51.58754871 F800
G2 I-0.00002668 J-9.26321335 X155.86923386 Y50.88242272 F800
G2 I-3.54482431 J-8.55792289 X158.87440094 Y48.87441864 F800
G2 I-6.55049191 J-6.55031883 X160.88242866 Y45.86914743 F800
G2 I-8.55764698 J-3.54468616 X161.58750924 Y42.3243614 F800
G1 X161.58751928 Y35.18867406 F800
G1 X161.58753078 Y27.01367406 F800
G1 X161.58754392 Y17.67571709 F800
G2 I-9.26319277 J0.000021 X160.88241126 Y14.13083365 F800
G2 I-8.55814408 J3.54493921 X158.87437999 Y11.12562429 F800
G2 I-6.55009091 J6.55009417 X155.86918913 Y9.11761656 F800
G2 I-3.54478915 J8.55783419 X152.32436687 Y8.41251082 F800
G1 X125.57184323 Y8.41251546 F800
G1 X117.39684323 Y8.41251688 F800
G1 X47.17184351 Y8.41252907 F800
G1 X38.99684351 Y8.41253049 F800
G1 X17.67569983 Y8.41253419 F800
G2 I0.00002991 J9.26348123 X14.13077805 Y9.11766265 F800
G2 I3.54466968 J8.55767192 X11.12564394 Y11.12563976 F800
G2 I6.55009861 J6.55004816 X9.11765454 Y14.1308251 F800
G2 I8.55819718 J3.54490804 X8.41253093 Y17.67570038 F800
G1 X8.41252489 Y25.81371469 F800
G1 X8.41251882 Y33.98871469 F800
G1 X8.41251263 Y42.32434 F800
G2 I9.26354035 J-0.00009898 X9.11764161 Y45.86920572 F800
G2 I8.55833234 J-3.54493197 X11.12562057 Y48.8744238 F800
G2 I6.5501892 J-6.55037433 X14.13087086 Y50.88242493 F800
G2 I3.54477307 J-8.55797509 X17.67568826 Y51.5875138 F800
G1 X22.67568826 Y51.58751509 Z-6.5 F800
G1 X17.67568826 Y51.5875138 Z-7 F800
G1 X40.79684472 Y51.58751979 F800
G1 X48.97184472 Y51.58752191 F800
G1 X115.19684508 Y51.58753909 F800
G1 X123.37184508 Y51.58754121 F800
G1 X152.32436811 Y51.58754871 F800
G2 I-0.00002668 J-9.26321335 X155.86923386 Y50.88242272 F800
G2 I-3.54482431 J-8.55792289 X158.87440094 Y48.87441864 F800
G2 I-6.55049191 J-6.55031883 X160.88242866 Y45.86914743 F800
G2 I-8.55764698 J-3.54468616 X161.58750924 Y42.3243614 F800
G1 X161.58751928 Y35.18867406 F800
G1 X161.58753078 Y27.01367406 F800
G1 X161.58754392 Y17.67571709 F800
G2 I-9.26319277 J0.000021 X160.88241126 Y14.13083365 F800
G2 I-8.55814408 J3.54493921 X158.87437999 Y11.12562429 F800
G2 I-6.55009091 J6.55009417 X155.86918913 Y9.11761656 F800
G2 I-3.54478915 J8.55783419 X152.32436687 Y8.41251082 F800
G1 X125.57184323 Y8.41251546 F800
G1 X117.39684323 Y8.41251688 F800
G1 X47.17184351 Y8.41252907 F800
G1 X38.99684351 Y8.41253049 F800
G1 X17.67569983 Y8.41253419 F800
G2 I0.00002991 J9.26348123 X14.13077805 Y9.11766265 F800
G2 I3.54466968 J8.55767192 X11.12564394 Y11.12563976 F800
G2 I6.55009861 J6.55004816 X9.11765454 Y14.1308251 F800
G2 I8.55819718 J3.54490804 X8.41253093 Y17.67570038 F800
G1 X8.41252489 Y25.81371469 F800
G1 X8.41251882 Y33.98871469 F800
G1 X8.41251263 Y42.32434 F800
G2 I9.26354035 J-0.00009898 X9.11764161 Y45.86920572 F800
G2 I8.55833234 J-3.54493197 X11.12562057 Y48.8744238 F800
G2 I6.5501892 J-6.55037433 X14.13087086 Y50.88242493 F800
G2 I3.54477307 J-8.55797509 X17.67568826 Y51.5875138 F800
G1 X22.67568826 Y51.58751509 Z-7.5 F800
G1 X17.67568826 Y51.5875138 Z-8 F800
G1 X40.79684472 Y51.58751979 F800
G1 X48.97184472 Y51.58752191 F800
G1 X115.19684508 Y51.58753909 F800
G1 X123.37184508 Y51.58754121 F800
G1 X152.32436811 Y51.58754871 F800
G2 I-0.00002668 J-9.26321335 X155.86923386 Y50.88242272 F800
G2 I-3.54482431 J-8.55792289 X158.87440094 Y48.87441864 F800
G2 I-6.55049191 J-6.55031883 X160.88242866 Y45.86914743 F800
G2 I-8.55764698 J-3.54468616 X161.58750924 Y42.3243614 F800
G1 X161.58751928 Y35.18867406 F800
G1 X161.58753078 Y27.01367406 F800
G1 X161.58754392 Y17.67571709 F800
G2 I-9.26319277 J0.000021 X160.88241126 Y14.13083365 F800
G2 I-8.55814408 J3.54493921 X158.87437999 Y11.12562429 F800
G2 I-6.55009091 J6.55009417 X155.86918913 Y9.11761656 F800
G2 I-3.54478915 J8.55783419 X152.32436687 Y8.41251082 F800
G1 X125.57184323 Y8.41251546 F800
G1 X117.39684323 Y8.41251688 F800
G1 X47.17184351 Y8.41252907 F800
G1 X38.99684351 Y8.41253049 F800
G1 X17.67569983 Y8.41253419 F800
G2 I0.00002991 J9.26348123 X14.13077805 Y9.11766265 F800
G2 I3.54466968 J8.55767192 X11.12564394 Y11.12563976 F800
G2 I6.55009861 J6.55004816 X9.11765454 Y14.1308251 F800
G2 I8.55819718 J3.54490804 X8.41253093 Y17.67570038 F800
G1 X8.41252489 Y25.81371469 F800
G1 X8.41251882 Y33.98871469 F800
G1 X8.41251263 Y42.32434 F800
G2 I9.26354035 J-0.00009898 X9.11764161 Y45.86920572 F800
G2 I8.55833234 J-3.54493197 X11.12562057 Y48.8744238 F800
G2 I6.5501892 J-6.55037433 X14.13087086 Y50.88242493 F800
G2 I3.54477307 J-8.55797509 X17.67568826 Y51.5875138 F800
G1 X22.67568826 Y51.58751509 Z-8.5 F800
G1 X17.67568826 Y51.5875138 Z-9 F800
G1 X40.79684472 Y51.58751979 F800
G1 X48.97184472 Y51.58752191 F800
G1 X115.19684508 Y51.58753909 F800
G1 X123.37184508 Y51.58754121 F800
G1 X152.32436811 Y51.58754871 F800
G2 I-0.00002668 J-9.26321335 X155.86923386 Y50.88242272 F800
G2 I-3.54482431 J-8.55792289 X158.87440094 Y48.87441864 F800
G2 I-6.55049191 J-6.55031883 X160.88242866 Y45.86914743 F800
G2 I-8.55764698 J-3.54468616 X161.58750924 Y42.3243614 F800
G1 X161.58751928 Y35.18867406 F800
G1 X161.58753078 Y27.01367406 F800
G1 X161.58754392 Y17.67571709 F800
G2 I-9.26319277 J0.000021 X160.88241126 Y14.13083365 F800
G2 I-8.55814408 J3.54493921 X158.87437999 Y11.12562429 F800
G2 I-6.55009091 J6.55009417 X155.86918913 Y9.11761656 F800
G2 I-3.54478915 J8.55783419 X152.32436687 Y8.41251082 F800
G1 X125.57184323 Y8.41251546 F800
G1 X117.39684323 Y8.41251688 F800
G1 X47.17184351 Y8.41252907 F800
G1 X38.99684351 Y8.41253049 F800
G1 X17.67569983 Y8.41253419 F800
G2 I0.00002991 J9.26348123 X14.13077805 Y9.11766265 F800
G2 I3.54466968 J8.55767192 X11.12564394 Y11.12563976 F800
G2 I6.55009861 J6.55004816 X9.11765454 Y14.1308251 F800
G2 I8.55819718 J3.54490804 X8.41253093 Y17.67570038 F800
G1 X8.41252489 Y25.81371469 F800
G1 X8.41251882 Y33.98871469 F800
G1 X8.41251263 Y42.32434 F800
G2 I9.26354035 J-0.00009898 X9.11764161 Y45.86920572 F800
G2 I8.55833234 J-3.54493197 X11.12562057 Y48.8744238 F800
G2 I6.5501892 J-6.55037433 X14.13087086 Y50.88242493 F800
G2 I3.54477307 J-8.55797509 X17.67568826 Y51.5875138 F800
G1 X22.67568826 Y51.58751509 Z-9.5 F800
G1 X17.67568826 Y51.5875138 Z-10 F800
G1 X40.79684472 Y51.58751979 F800
G1 X48.97184472 Y51.58752191 F800
G1 X115.19684508 Y51.58753909 F800
G1 X123.37184508 Y51.58754121 F800
G1 X152.32436811 Y51.58754871 F800
G2 I-0.00002668 J-9.26321335 X155.86923386 Y50.88242272 F800
G2 I-3.54482431 J-8.55792289 X158.87440094 Y48.87441864 F800
G2 I-6.55049191 J-6.55031883 X160.88242866 Y45.86914743 F800
G2 I-8.55764698 J-3.54468616 X161.58750924 Y42.3243614 F800
G1 X161.58751928 Y35.18867406 F800
G1 X161.58753078 Y27.01367406 F800
G1 X161.58754392 Y17.67571709 F800
G2 I-9.26319277 J0.000021 X160.88241126 Y14.13083365 F800
G2 I-8.55814408 J3.54493921 X158.87437999 Y11.12562429 F800
G2 I-6.55009091 J6.55009417 X155.86918913 Y9.11761656 F800
G2 I-3.54478915 J8.55783419 X152.32436687 Y8.41251082 F800
G1 X125.57184323 Y8.41251546 F800
G1 X117.39684323 Y8.41251688 F800
G1 X47.17184351 Y8.41252907 F800
G1 X38.99684351 Y8.41253049 F800
G1 X17.67569983 Y8.41253419 F800
G2 I0.00002991 J9.26348123 X14.13077805 Y9.11766265 F800
G2 I3.54466968 J8.55767192 X11.12564394 Y11.12563976 F800
G2 I6.55009861 J6.55004816 X9.11765454 Y14.1308251 F800
G2 I8.55819718 J3.54490804 X8.41253093 Y17.67570038 F800
G1 X8.41252489 Y25.81371469 F800
G1 X8.41251882 Y33.98871469 F800
G1 X8.41251263 Y42.32434 F800
G2 I9.26354035 J-0.00009898 X9.11764161 Y45.86920572 F800
G2 I8.55833234 J-3.54493197 X11.12562057 Y48.8744238 F800
G2 I6.5501892 J-6.55037433 X14.13087086 Y50.88242493 F800
G2 I3.54477307 J-8.55797509 X17.67568826 Y51.5875138 F800
G1 X22.67568826 Y51.58751509 Z-10.5 F800
G1 X17.67568826 Y51.5875138 Z-11 F800
G1 X40.79684472 Y51.58751979 F800
G1 X48.97184472 Y51.58752191 F800
G1 X115.19684508 Y51.58753909 F800
G1 X123.37184508 Y51.58754121 F800
G1 X152.32436811 Y51.58754871 F800
G2 I-0.00002668 J-9.26321335 X155.86923386 Y50.88242272 F800
G2 I-3.54482431 J-8.55792289 X158.87440094 Y48.87441864 F800
G2 I-6.55049191 J-6.55031883 X160.88242866 Y45.86914743 F800
G2 I-8.55764698 J-3.54468616 X161.58750924 Y42.3243614 F800
